; generated by Slic3r 1.2.9 on 2019-05-19 at 11:17:11

; external perimeters extrusion width = 0.40mm
; perimeters extrusion width = 0.56mm
; infill extrusion width = 0.56mm
; solid infill extrusion width = 0.56mm
; top infill extrusion width = 0.56mm

M107
M190 S60 ; set bed temperature
M104 S215 ; set temperature
G28 ; home all axes
G92 E0.0 ; reset extruder
M109 S215 ; wait for temperature to be reached
G21 ; set units to millimeters
G90 ; use absolute coordinates
M83 ; use relative distances for extrusion
G1 E-1.30000 F3600.00000
G1 Z0.300 F7800.000
G1 X68.804 Y68.575 F7800.000
G1 E1.30000 F3600.00000
M204 S500
G1 X69.353 Y68.059 E0.04470 F2160.000
G1 X70.459 Y67.144 E0.08512
G1 X71.068 Y66.701 E0.04470
G1 X72.280 Y65.933 E0.08512
G1 X72.940 Y65.569 E0.04471
G1 X74.291 Y64.938 E0.08846
G1 X74.939 Y64.681 E0.04136
G1 X76.304 Y64.238 E0.08512
G1 X77.034 Y64.050 E0.04471
G1 X78.444 Y63.781 E0.08512
G1 X79.191 Y63.687 E0.04470
G1 X80.623 Y63.597 E0.08513
G1 X99.377 Y63.597 E1.11249
G1 X100.809 Y63.687 E0.08511
G1 X101.557 Y63.781 E0.04472 F2160.000
G1 X102.966 Y64.050 E0.08512
G1 X103.696 Y64.238 E0.04470
G1 X105.060 Y64.681 E0.08512
G1 X105.761 Y64.958 E0.04471
G1 X107.059 Y65.569 E0.08511
G1 X107.720 Y65.932 E0.04471
G1 X108.932 Y66.701 E0.08513
G1 X109.541 Y67.144 E0.04470
G1 X110.647 Y68.059 E0.08512
G1 X111.196 Y68.575 E0.04470
G1 X112.178 Y69.621 E0.08513
G1 X112.659 Y70.201 E0.04470
G1 X113.502 Y71.362 E0.08512
G1 X113.906 Y71.999 E0.04470
G1 X114.597 Y73.256 E0.08512
G1 X114.918 Y73.938 E0.04470
G1 X115.446 Y75.272 E0.08513
G1 X115.679 Y75.989 E0.04470
G1 X116.036 Y77.379 E0.08513
G1 X116.177 Y78.119 E0.04470
G1 X116.357 Y79.542 E0.08513
G1 X116.427 Y81.012 E0.08727
G1 X116.427 Y98.988 E1.06639
G1 X116.404 Y99.706 E0.04258
G1 X116.357 Y100.458 E0.04470
G1 X116.177 Y101.881 E0.08512
G1 X116.036 Y102.621 E0.04470
G1 X115.679 Y104.011 E0.08513
G1 X115.446 Y104.728 E0.04470
G1 X114.918 Y106.062 E0.08513
G1 X114.597 Y106.744 E0.04470
G1 X113.906 Y108.002 E0.08513
G1 X113.502 Y108.638 E0.04470
G1 X112.659 Y109.799 E0.08513
G1 X112.178 Y110.379 E0.04470
G1 X111.196 Y111.425 E0.08512
G1 X110.647 Y111.941 E0.04470
G1 X109.541 Y112.856 E0.08512
G1 X108.932 Y113.299 E0.04470
G1 X107.720 Y114.068 E0.08513
G1 X107.060 Y114.431 E0.04470
G1 X105.761 Y115.042 E0.08512
G1 X105.061 Y115.319 E0.04470
G1 X103.696 Y115.762 E0.08513
G1 X102.966 Y115.950 E0.04470
G1 X101.556 Y116.219 E0.08512
G1 X100.809 Y116.313 E0.04470
G1 X99.377 Y116.403 E0.08513
G1 X80.623 Y116.403 E1.11249
G1 X79.191 Y116.313 E0.08513
G1 X78.444 Y116.219 E0.04470
G1 X77.034 Y115.950 E0.08512
G1 X76.304 Y115.762 E0.04470
G1 X74.939 Y115.319 E0.08513
G1 X74.239 Y115.042 E0.04470
G1 X72.940 Y114.431 E0.08512
G1 X72.280 Y114.068 E0.04470
G1 X71.068 Y113.299 E0.08513
G1 X70.459 Y112.856 E0.04470
G1 X69.353 Y111.941 E0.08512
G1 X68.804 Y111.425 E0.04470
G1 X67.822 Y110.379 E0.08512
G1 X67.377 Y109.842 E0.04135
G1 X66.498 Y108.638 E0.08847
G1 X66.094 Y108.002 E0.04470
G1 X65.403 Y106.744 E0.08513
G1 X65.082 Y106.062 E0.04470
G1 X64.554 Y104.728 E0.08512
G1 X64.321 Y104.011 E0.04470
G1 X63.964 Y102.621 E0.08513
G1 X63.823 Y101.881 E0.04470
G1 X63.643 Y100.458 E0.08513
G1 X63.573 Y98.988 E0.08727
G1 X63.573 Y81.012 E1.06639
G1 X63.596 Y80.294 E0.04258
G1 X63.643 Y79.542 E0.04470
G1 X63.823 Y78.119 E0.08513
G1 X63.964 Y77.379 E0.04470
G1 X64.321 Y75.989 E0.08513
G1 X64.536 Y75.326 E0.04135
G1 X65.082 Y73.938 E0.08848
G1 X65.403 Y73.256 E0.04470
G1 X66.094 Y71.998 E0.08513
G1 X66.498 Y71.362 E0.04470
G1 X67.341 Y70.201 E0.08513
G1 X67.822 Y69.621 E0.04470
G1 X68.763 Y68.619 E0.08156
G1 X69.130 Y68.921 F7800.000
G1 X69.679 Y68.406 E0.04470 F2160.000
G1 X70.738 Y67.529 E0.08158
G1 X71.348 Y67.086 E0.04470
G1 X72.509 Y66.349 E0.08158
G1 X73.170 Y65.986 E0.04471
G1 X74.466 Y65.380 E0.08492
G1 X75.114 Y65.123 E0.04135
G1 X76.422 Y64.698 E0.08158
G1 X77.152 Y64.511 E0.04470
G1 X78.503 Y64.253 E0.08158
G1 X79.251 Y64.159 E0.04470
G1 X80.623 Y64.072 E0.08158
G1 X99.377 Y64.072 E1.11249
G1 X100.749 Y64.159 E0.08156
G1 X101.497 Y64.253 E0.04472 F2160.000
G1 X102.848 Y64.511 E0.08157
G1 X103.578 Y64.698 E0.04470
G1 X104.885 Y65.123 E0.08158
G1 X105.586 Y65.401 E0.04471
G1 X106.830 Y65.986 E0.08157
G1 X107.491 Y66.349 E0.04471
G1 X108.652 Y67.086 E0.08159
G1 X109.262 Y67.529 E0.04470
G1 X110.321 Y68.406 E0.08158
G1 X110.870 Y68.921 E0.04470
G1 X111.812 Y69.924 E0.08158
G1 X112.292 Y70.505 E0.04470
G1 X113.101 Y71.617 E0.08158
G1 X113.504 Y72.253 E0.04470
G1 X114.167 Y73.458 E0.08158
G1 X114.488 Y74.140 E0.04470
G1 X114.994 Y75.419 E0.08158
G1 X115.227 Y76.136 E0.04470
G1 X115.569 Y77.468 E0.08158
G1 X115.710 Y78.208 E0.04470
G1 X115.882 Y79.572 E0.08159
G1 X115.951 Y81.012 E0.08550
G1 X115.951 Y98.988 E1.06639
G1 X115.930 Y99.676 E0.04081
G1 X115.882 Y100.428 E0.04470
G1 X115.710 Y101.792 E0.08158
G1 X115.569 Y102.532 E0.04470
G1 X115.227 Y103.864 E0.08158
G1 X114.994 Y104.581 E0.04470
G1 X114.488 Y105.860 E0.08158
G1 X114.167 Y106.542 E0.04470
G1 X113.504 Y107.747 E0.08158
G1 X113.101 Y108.383 E0.04470
G1 X112.292 Y109.495 E0.08158
G1 X111.812 Y110.076 E0.04470
G1 X110.870 Y111.079 E0.08158
G1 X110.321 Y111.594 E0.04470
G1 X109.262 Y112.471 E0.08158
G1 X108.652 Y112.914 E0.04470
G1 X107.491 Y113.651 E0.08159
G1 X106.830 Y114.014 E0.04470
G1 X105.586 Y114.599 E0.08158
G1 X104.886 Y114.877 E0.04470
G1 X103.578 Y115.302 E0.08158
G1 X102.848 Y115.489 E0.04470
G1 X101.497 Y115.747 E0.08158
G1 X100.749 Y115.841 E0.04470
G1 X99.377 Y115.928 E0.08159
G1 X80.623 Y115.928 E1.11249
G1 X79.251 Y115.841 E0.08159
G1 X78.503 Y115.747 E0.04470
G1 X77.152 Y115.489 E0.08158
G1 X76.422 Y115.302 E0.04470
G1 X75.114 Y114.877 E0.08159
G1 X74.414 Y114.599 E0.04470
G1 X73.170 Y114.014 E0.08158
G1 X72.509 Y113.651 E0.04470
G1 X71.348 Y112.914 E0.08159
G1 X70.738 Y112.471 E0.04470
G1 X69.679 Y111.594 E0.08158
G1 X69.130 Y111.079 E0.04470
G1 X68.188 Y110.076 E0.08158
G1 X67.744 Y109.539 E0.04135
G1 X66.899 Y108.383 E0.08493
G1 X66.496 Y107.747 E0.04470
G1 X65.833 Y106.542 E0.08158
G1 X65.512 Y105.860 E0.04470
G1 X65.006 Y104.581 E0.08158
G1 X64.773 Y103.864 E0.04470
G1 X64.431 Y102.532 E0.08158
G1 X64.290 Y101.792 E0.04470
G1 X64.118 Y100.428 E0.08158
G1 X64.049 Y98.988 E0.08550
G1 X64.049 Y81.012 E1.06639
G1 X64.070 Y80.324 E0.04081
G1 X64.118 Y79.572 E0.04470
G1 X64.290 Y78.208 E0.08159
G1 X64.431 Y77.468 E0.04470
G1 X64.773 Y76.136 E0.08158
G1 X64.989 Y75.473 E0.04135
G1 X65.512 Y74.140 E0.08493
G1 X65.833 Y73.458 E0.04470
G1 X66.496 Y72.253 E0.08158
G1 X66.899 Y71.617 E0.04470
G1 X67.708 Y70.505 E0.08158
G1 X68.188 Y69.924 E0.04470
G1 X69.088 Y68.965 E0.07802
G1 X69.455 Y69.268 F7800.000
G1 X70.004 Y68.752 E0.04470 F2160.000
G1 X71.018 Y67.914 E0.07804
G1 X71.628 Y67.471 E0.04470
G1 X72.738 Y66.766 E0.07803
G1 X73.399 Y66.403 E0.04471
G1 X74.641 Y65.822 E0.08138
G1 X75.290 Y65.566 E0.04135
G1 X76.541 Y65.159 E0.07804
G1 X77.271 Y64.972 E0.04470
G1 X78.563 Y64.725 E0.07804
G1 X79.310 Y64.631 E0.04470
G1 X80.623 Y64.548 E0.07804
G1 X99.377 Y64.548 E1.11249
G1 X100.689 Y64.631 E0.07802
G1 X101.437 Y64.725 E0.04472 F2160.000
G1 X102.729 Y64.972 E0.07803
G1 X103.459 Y65.159 E0.04470
G1 X104.763 Y65.586 E0.08139
G1 X105.411 Y65.843 E0.04135
G1 X106.601 Y66.403 E0.07803
G1 X107.262 Y66.766 E0.04471
G1 X108.372 Y67.471 E0.07805
G1 X108.982 Y67.914 E0.04470
G1 X109.996 Y68.752 E0.07804
G1 X110.545 Y69.268 E0.04470
G1 X111.445 Y70.227 E0.07804
G1 X111.926 Y70.808 E0.04470
G1 X112.699 Y71.872 E0.07804
G1 X113.103 Y72.508 E0.04470
G1 X113.736 Y73.661 E0.07804
G1 X114.057 Y74.343 E0.04470
G1 X114.542 Y75.566 E0.07804
G1 X114.774 Y76.283 E0.04470
G1 X115.102 Y77.557 E0.07804
G1 X115.243 Y78.297 E0.04470
G1 X115.408 Y79.602 E0.07804
G1 X115.476 Y81.012 E0.08373
G1 X115.476 Y98.988 E1.06639
G1 X115.455 Y99.646 E0.03904
G1 X115.408 Y100.398 E0.04470
G1 X115.243 Y101.703 E0.07804
G1 X115.102 Y102.443 E0.04470
G1 X114.774 Y103.717 E0.07804
G1 X114.542 Y104.434 E0.04470
G1 X114.057 Y105.657 E0.07804
G1 X113.736 Y106.339 E0.04470
G1 X113.103 Y107.492 E0.07804
G1 X112.699 Y108.128 E0.04470
G1 X111.926 Y109.192 E0.07804
G1 X111.445 Y109.773 E0.04470
G1 X110.545 Y110.732 E0.07804
G1 X109.996 Y111.248 E0.04470
G1 X108.982 Y112.086 E0.07803
G1 X108.372 Y112.529 E0.04470
G1 X107.262 Y113.234 E0.07805
G1 X106.601 Y113.597 E0.04470
G1 X105.411 Y114.157 E0.07804
G1 X104.710 Y114.434 E0.04470
G1 X103.459 Y114.841 E0.07804
G1 X102.729 Y115.028 E0.04470
G1 X101.437 Y115.275 E0.07803
G1 X100.690 Y115.369 E0.04470
G1 X99.377 Y115.452 E0.07804
G1 X80.623 Y115.452 E1.11249
G1 X79.310 Y115.369 E0.07804
G1 X78.563 Y115.275 E0.04470
G1 X77.271 Y115.028 E0.07804
G1 X76.541 Y114.841 E0.04470
G1 X75.290 Y114.434 E0.07804
G1 X74.589 Y114.157 E0.04470
G1 X73.399 Y113.597 E0.07804
G1 X72.738 Y113.234 E0.04470
G1 X71.628 Y112.529 E0.07805
G1 X71.018 Y112.086 E0.04470
G1 X70.004 Y111.248 E0.07804
G1 X69.455 Y110.732 E0.04470
G1 X68.555 Y109.773 E0.07804
G1 X68.110 Y109.236 E0.04135
G1 X67.301 Y108.128 E0.08138
G1 X66.897 Y107.492 E0.04470
G1 X66.264 Y106.339 E0.07804
G1 X65.943 Y105.657 E0.04470
G1 X65.458 Y104.434 E0.07804
G1 X65.226 Y103.717 E0.04470
G1 X64.898 Y102.443 E0.07804
G1 X64.757 Y101.703 E0.04470
G1 X64.592 Y100.398 E0.07804
G1 X64.524 Y98.988 E0.08373
G1 X64.524 Y81.012 E1.06639
G1 X64.545 Y80.354 E0.03904
G1 X64.592 Y79.602 E0.04470
G1 X64.757 Y78.297 E0.07804
G1 X64.898 Y77.557 E0.04470
G1 X65.226 Y76.283 E0.07804
G1 X65.441 Y75.620 E0.04135
G1 X65.943 Y74.343 E0.08139
G1 X66.264 Y73.661 E0.04470
G1 X66.897 Y72.508 E0.07804
G1 X67.301 Y71.872 E0.04470
G1 X68.074 Y70.808 E0.07804
G1 X68.555 Y70.227 E0.04470
G1 X69.414 Y69.312 E0.07448
G1 F6240
G1 X70.004 Y68.752 E-0.44581
G1 F6240
G1 X71.018 Y67.914 E-0.72100
G1 F6240
G1 X71.119 Y67.841 E-0.06819
G1 E-0.06500 F3600.00000
G1 X102.096 Y83.919 F7800.000
G1 E1.30000 F3600.00000
G1 X101.707 Y84.284 E0.03164 F1080.000
G1 X101.276 Y84.598 E0.03164
G1 X100.808 Y84.855 E0.03164
G1 X100.312 Y85.051 E0.03164
G1 X99.796 Y85.184 E0.03164
G1 X99.267 Y85.251 E0.03164
G1 X98.733 Y85.251 E0.03164
G1 X98.204 Y85.184 E0.03164
G1 X97.688 Y85.051 E0.03164
G1 X97.192 Y84.855 E0.03164
G1 X96.724 Y84.598 E0.03164
G1 X96.293 Y84.284 E0.03164
G1 X95.904 Y83.919 E0.03164
G1 X95.564 Y83.508 E0.03164
G1 X95.278 Y83.058 E0.03164
G1 X95.051 Y82.575 E0.03168
G1 X94.885 Y82.061 E0.03203
G1 X94.786 Y81.544 E0.03121
G1 X94.753 Y81.011 E0.03168
G1 X94.788 Y80.472 E0.03203
G1 X94.886 Y79.956 E0.03121
G1 X95.051 Y79.448 E0.03164
G1 X95.278 Y78.966 E0.03164
G1 X95.564 Y78.515 E0.03164
G1 X95.904 Y78.105 E0.03164
G1 X96.293 Y77.739 E0.03164
G1 X96.724 Y77.426 E0.03164
G1 X97.192 Y77.169 E0.03164
G1 X97.688 Y76.973 E0.03164
G1 X98.204 Y76.840 E0.03164
G1 X98.733 Y76.773 E0.03164
G1 X99.267 Y76.773 E0.03164 F1080.000
G1 X99.796 Y76.840 E0.03164
G1 X100.312 Y76.973 E0.03164
G1 X100.808 Y77.169 E0.03164
G1 X101.276 Y77.426 E0.03164
G1 X101.707 Y77.739 E0.03164
G1 X102.096 Y78.105 E0.03164
G1 X102.436 Y78.515 E0.03164
G1 X102.722 Y78.966 E0.03164
G1 X102.949 Y79.448 E0.03164
G1 X103.114 Y79.956 E0.03164
G1 X103.214 Y80.480 E0.03164
G1 X103.247 Y81.013 E0.03168
G1 X103.212 Y81.551 E0.03203
G1 X103.114 Y82.068 E0.03121
G1 X102.949 Y82.575 E0.03164
G1 X102.722 Y83.058 E0.03164
G1 X102.436 Y83.508 E0.03164
G1 X102.134 Y83.873 E0.02808
G1 X101.749 Y83.593 F7800.000
G1 X101.403 Y83.917 E0.02809 F1080.000
G1 X101.020 Y84.195 E0.02809
G1 X100.605 Y84.424 E0.02809
G1 X100.165 Y84.598 E0.02809
G1 X99.707 Y84.716 E0.02809
G1 X99.237 Y84.775 E0.02809
G1 X98.763 Y84.775 E0.02809
G1 X98.293 Y84.716 E0.02809
G1 X97.835 Y84.598 E0.02809
G1 X97.395 Y84.424 E0.02809
G1 X96.980 Y84.195 E0.02809
G1 X96.597 Y83.917 E0.02809
G1 X96.251 Y83.593 E0.02809
G1 X95.950 Y83.228 E0.02809
G1 X95.696 Y82.828 E0.02809
G1 X95.494 Y82.400 E0.02810
G1 X95.347 Y81.943 E0.02848
G1 X95.259 Y81.484 E0.02768
G1 X95.229 Y81.012 E0.02810
G1 X95.260 Y80.533 E0.02848
G1 X95.348 Y80.074 E0.02768
G1 X95.494 Y79.624 E0.02809
G1 X95.696 Y79.195 E0.02809
G1 X95.950 Y78.796 E0.02809
G1 X96.251 Y78.431 E0.02809
G1 X96.597 Y78.107 E0.02809
G1 X96.980 Y77.828 E0.02809
G1 X97.395 Y77.600 E0.02809
G1 X97.835 Y77.426 E0.02809
G1 X98.293 Y77.308 E0.02809
G1 X98.763 Y77.249 E0.02809
G1 X99.237 Y77.249 E0.02809 F1080.000
G1 X99.707 Y77.308 E0.02809
G1 X100.165 Y77.426 E0.02809
G1 X100.605 Y77.600 E0.02809
G1 X101.020 Y77.828 E0.02809
G1 X101.403 Y78.107 E0.02809
G1 X101.749 Y78.431 E0.02809
G1 X102.050 Y78.796 E0.02809
G1 X102.304 Y79.195 E0.02809
G1 X102.506 Y79.624 E0.02809
G1 X102.652 Y80.074 E0.02809
G1 X102.741 Y80.539 E0.02809
G1 X102.771 Y81.012 E0.02810
G1 X102.740 Y81.491 E0.02848
G1 X102.652 Y81.950 E0.02768
G1 X102.506 Y82.400 E0.02809
G1 X102.304 Y82.828 E0.02809
G1 X102.050 Y83.228 E0.02809
G1 X101.787 Y83.547 E0.02453
G1 X101.856 Y83.978 F7800.000
G1 X102.889 Y84.536 F7800.000
G1 X102.348 Y85.059 E0.04462 F1080.000
G1 X101.815 Y85.447 E0.03913
G1 X101.237 Y85.765 E0.03913
G1 X100.623 Y86.008 E0.03913
G1 X99.984 Y86.172 E0.03913
G1 X99.330 Y86.254 E0.03913
G1 X98.670 Y86.254 E0.03913
G1 X98.016 Y86.172 E0.03913
G1 X97.377 Y86.008 E0.03913
G1 X96.763 Y85.765 E0.03913
G1 X96.185 Y85.447 E0.03913
G1 X95.652 Y85.059 E0.03913
G1 X95.171 Y84.608 E0.03913
G1 X94.784 Y84.140 E0.03597
G1 X94.395 Y83.539 E0.04246
G1 X94.116 Y82.946 E0.03894
G1 X93.912 Y82.318 E0.03913
G1 X93.789 Y81.670 E0.03913
G1 X93.747 Y81.012 E0.03913
G1 X93.789 Y80.353 E0.03913
G1 X93.912 Y79.705 E0.03913
G1 X94.100 Y79.129 E0.03597
G1 X94.399 Y78.478 E0.04246
G1 X94.750 Y77.924 E0.03894
G1 X95.171 Y77.416 E0.03913
G1 X95.649 Y76.967 E0.03894
G1 X96.232 Y76.551 E0.04246
G1 X96.763 Y76.259 E0.03597
G1 X97.377 Y76.016 E0.03913
G1 X98.016 Y75.852 E0.03913
G1 X98.667 Y75.770 E0.03894
G1 X99.383 Y75.776 E0.04246
G1 X99.984 Y75.852 E0.03597 F1080.000
G1 X100.623 Y76.016 E0.03913
G1 X101.237 Y76.259 E0.03913
G1 X101.815 Y76.577 E0.03913
G1 X102.348 Y76.964 E0.03913
G1 X102.829 Y77.416 E0.03913
G1 X103.250 Y77.924 E0.03913
G1 X103.603 Y78.481 E0.03913
G1 X103.884 Y79.078 E0.03913
G1 X104.088 Y79.705 E0.03913
G1 X104.211 Y80.353 E0.03913
G1 X104.253 Y81.012 E0.03913
G1 X104.211 Y81.670 E0.03913
G1 X104.088 Y82.318 E0.03913
G1 X103.884 Y82.946 E0.03913
G1 X103.603 Y83.542 E0.03913
G1 X103.250 Y84.099 E0.03913
G1 X102.927 Y84.490 E0.03005
G1 X103.255 Y84.839 F7800.000
G1 X103.177 Y84.934 E0.00730 F1080.000
G1 X102.652 Y85.426 E0.04268
G1 X102.070 Y85.849 E0.04268
G1 X101.439 Y86.196 E0.04268
G1 X100.770 Y86.461 E0.04268
G1 X100.074 Y86.640 E0.04268
G1 X99.360 Y86.730 E0.04268
G1 X98.640 Y86.730 E0.04268
G1 X97.926 Y86.640 E0.04268
G1 X97.229 Y86.461 E0.04268
G1 X96.561 Y86.196 E0.04268
G1 X95.930 Y85.849 E0.04268
G1 X95.348 Y85.426 E0.04268
G1 X94.823 Y84.934 E0.04268
G1 X94.400 Y84.422 E0.03940
G1 X93.979 Y83.771 E0.04601
G1 X93.673 Y83.121 E0.04261
G1 X93.451 Y82.437 E0.04268
G1 X93.316 Y81.730 E0.04268
G1 X93.271 Y81.012 E0.04268
G1 X93.316 Y80.294 E0.04268
G1 X93.451 Y79.587 E0.04268
G1 X93.656 Y78.955 E0.03940
G1 X93.980 Y78.251 E0.04601
G1 X94.365 Y77.644 E0.04261
G1 X94.823 Y77.090 E0.04268
G1 X95.347 Y76.598 E0.04261
G1 X95.978 Y76.148 E0.04601
G1 X96.561 Y75.828 E0.03940
G1 X97.229 Y75.563 E0.04268
G1 X97.926 Y75.384 E0.04268
G1 X98.639 Y75.294 E0.04261
G1 X99.415 Y75.301 E0.04601
G1 X100.074 Y75.384 E0.03940 F1080.000
G1 X100.770 Y75.563 E0.04268
G1 X101.439 Y75.828 E0.04268
G1 X102.070 Y76.174 E0.04268
G1 X102.652 Y76.597 E0.04268
G1 X103.177 Y77.090 E0.04268
G1 X103.635 Y77.644 E0.04268
G1 X104.021 Y78.252 E0.04268
G1 X104.327 Y78.903 E0.04268
G1 X104.549 Y79.587 E0.04268
G1 X104.684 Y80.294 E0.04268
G1 X104.729 Y81.012 E0.04268
G1 X104.684 Y81.730 E0.04268
G1 X104.549 Y82.437 E0.04268
G1 X104.327 Y83.121 E0.04268
G1 X104.021 Y83.772 E0.04268
G1 X103.635 Y84.380 E0.04268
G1 X103.293 Y84.793 E0.03183
G1 X103.134 Y84.819 F7800.000
G1 X102.502 Y84.216 F7800.000
G1 X102.028 Y84.672 E0.08330 F360.000
G1 X101.545 Y85.022 E0.07556
G1 X101.022 Y85.310 E0.07556
G1 X100.452 Y85.533 E0.07765
G1 X99.890 Y85.677 E0.07345
G1 X99.315 Y85.750 E0.07346
G1 X98.718 Y85.752 E0.07555
