; generated by Slic3r 1.2.9 on 2019-05-05 at 14:57:41

; external perimeters extrusion width = 0.40mm
; perimeters extrusion width = 0.56mm
; infill extrusion width = 0.56mm
; solid infill extrusion width = 0.56mm
; top infill extrusion width = 0.56mm

M107
M190 S60 ; set bed temperature
M104 S215 ; set temperature
G28 ; home all axes
G92 E0.0 ; reset extruder
M109 S215 ; wait for temperature to be reached
G21 ; set units to millimeters
G90 ; use absolute coordinates
M83 ; use relative distances for extrusion
G1 E-1.30000 F3600.00000
G1 Z0.300 F7800.000
G1 X77.153 Y76.870 F7800.000
G1 E1.30000 F3600.00000
M204 S500
G1 X77.702 Y76.354 E0.04470 F1926.995
G1 X78.900 Y75.363 E0.09221
G1 X79.509 Y74.920 E0.04470
G1 X80.822 Y74.087 E0.09220
G1 X81.482 Y73.724 E0.04471
G1 X82.888 Y73.062 E0.09220
G1 X83.589 Y72.785 E0.04471
G1 X85.122 Y72.290 E0.09555
G1 X85.797 Y72.117 E0.04135
G1 X87.324 Y71.826 E0.09221
G1 X88.072 Y71.731 E0.04470
G1 X89.623 Y71.634 E0.09221
G1 X90.377 Y71.634 E0.04470
G1 X91.928 Y71.731 E0.09219
G1 X92.676 Y71.826 E0.04472 F1926.995
G1 X94.202 Y72.117 E0.09220
G1 X94.932 Y72.304 E0.04470
G1 X96.411 Y72.785 E0.09221
G1 X97.111 Y73.062 E0.04471
G1 X98.518 Y73.724 E0.09220
G1 X99.178 Y74.087 E0.04471
G1 X100.491 Y74.920 E0.09222
G1 X101.100 Y75.363 E0.04470
G1 X102.298 Y76.354 E0.09221
G1 X102.847 Y76.869 E0.04470
G1 X103.911 Y78.003 E0.09221
G1 X104.356 Y78.540 E0.04135
G1 X105.305 Y79.841 E0.09556
G1 X105.709 Y80.477 E0.04470
G1 X106.458 Y81.839 E0.09221
G1 X106.779 Y82.521 E0.04470
G1 X107.351 Y83.966 E0.09221
G1 X107.584 Y84.683 E0.04470
G1 X107.970 Y86.188 E0.09221
G1 X108.112 Y86.929 E0.04470
G1 X108.306 Y88.471 E0.09222
G1 X108.354 Y89.223 E0.04470
G1 X108.354 Y90.777 E0.09221
G1 X108.306 Y91.529 E0.04470
G1 X108.112 Y93.071 E0.09221
G1 X107.970 Y93.812 E0.04470
G1 X107.584 Y95.317 E0.09221
G1 X107.351 Y96.034 E0.04470
G1 X106.779 Y97.479 E0.09221
G1 X106.458 Y98.161 E0.04470
G1 X105.709 Y99.523 E0.09221
G1 X105.305 Y100.159 E0.04470
G1 X104.392 Y101.417 E0.09221
G1 X103.911 Y101.997 E0.04470
G1 X102.847 Y103.130 E0.09221
G1 X102.298 Y103.646 E0.04470
G1 X101.100 Y104.637 E0.09221
G1 X100.491 Y105.080 E0.04470
G1 X99.178 Y105.913 E0.09222
G1 X98.518 Y106.276 E0.04470
G1 X97.111 Y106.938 E0.09221
G1 X96.411 Y107.215 E0.04470
G1 X94.932 Y107.696 E0.09221
G1 X94.203 Y107.883 E0.04470
G1 X92.676 Y108.174 E0.09221
G1 X91.928 Y108.269 E0.04470
G1 X90.377 Y108.366 E0.09222
G1 X89.623 Y108.366 E0.04470
G1 X88.072 Y108.269 E0.09222
G1 X87.324 Y108.174 E0.04470
G1 X85.797 Y107.883 E0.09221
G1 X85.068 Y107.696 E0.04470
G1 X83.589 Y107.215 E0.09222
G1 X82.889 Y106.938 E0.04470
G1 X81.482 Y106.276 E0.09221
G1 X80.822 Y105.913 E0.04470
G1 X79.509 Y105.080 E0.09222
G1 X78.900 Y104.637 E0.04470
G1 X77.702 Y103.646 E0.09221
G1 X77.153 Y103.131 E0.04470
G1 X76.089 Y101.997 E0.09221
G1 X75.608 Y101.417 E0.04470
G1 X74.695 Y100.159 E0.09221
G1 X74.291 Y99.523 E0.04470
G1 X73.542 Y98.161 E0.09221
G1 X73.245 Y97.530 E0.04135
G1 X72.649 Y96.034 E0.09555
G1 X72.416 Y95.317 E0.04470
G1 X72.030 Y93.812 E0.09221
G1 X71.888 Y93.071 E0.04470
G1 X71.694 Y91.529 E0.09221
G1 X71.646 Y90.777 E0.04471
G1 X71.646 Y89.223 E0.09219
G1 X71.694 Y88.471 E0.04470
G1 X71.888 Y86.929 E0.09222
G1 X72.030 Y86.188 E0.04470
G1 X72.416 Y84.683 E0.09221
G1 X72.632 Y84.020 E0.04135
G1 X73.221 Y82.521 E0.09556
G1 X73.542 Y81.839 E0.04470
G1 X74.291 Y80.477 E0.09221
G1 X74.695 Y79.841 E0.04470
G1 X75.608 Y78.583 E0.09221
G1 X76.089 Y78.003 E0.04470
G1 X77.112 Y76.913 E0.08865
G1 X77.478 Y77.216 F7800.000
G1 X78.028 Y76.700 E0.04470 F1926.995
G1 X79.179 Y75.748 E0.08867
G1 X79.789 Y75.305 E0.04470
G1 X81.051 Y74.504 E0.08866
G1 X81.711 Y74.141 E0.04471
G1 X83.064 Y73.504 E0.08866
G1 X83.764 Y73.227 E0.04471
G1 X85.241 Y72.751 E0.09202
G1 X85.916 Y72.578 E0.04135
G1 X87.384 Y72.298 E0.08867
G1 X88.131 Y72.203 E0.04470
G1 X89.623 Y72.109 E0.08867
G1 X90.377 Y72.109 E0.04470
G1 X91.868 Y72.203 E0.08865
G1 X92.616 Y72.298 E0.04472 F1926.995
G1 X94.084 Y72.578 E0.08866
G1 X94.814 Y72.765 E0.04470
G1 X96.236 Y73.227 E0.08866
G1 X96.936 Y73.504 E0.04471
G1 X98.289 Y74.141 E0.08866
G1 X98.949 Y74.504 E0.04471
G1 X100.211 Y75.305 E0.08868
G1 X100.821 Y75.748 E0.04470
G1 X101.972 Y76.700 E0.08867
G1 X102.522 Y77.216 E0.04470
G1 X103.545 Y78.306 E0.08867
G1 X103.989 Y78.843 E0.04135
G1 X104.904 Y80.096 E0.09201
G1 X105.307 Y80.732 E0.04470
G1 X106.028 Y82.042 E0.08867
G1 X106.348 Y82.723 E0.04470
G1 X106.899 Y84.113 E0.08867
G1 X107.131 Y84.830 E0.04470
G1 X107.503 Y86.278 E0.08867
G1 X107.644 Y87.018 E0.04470
G1 X107.832 Y88.501 E0.08867
G1 X107.879 Y89.253 E0.04470
G1 X107.879 Y90.747 E0.08866
G1 X107.832 Y91.499 E0.04470
G1 X107.644 Y92.982 E0.08867
G1 X107.503 Y93.722 E0.04470
G1 X107.131 Y95.170 E0.08867
G1 X106.899 Y95.887 E0.04470
G1 X106.348 Y97.277 E0.08867
G1 X106.028 Y97.958 E0.04470
G1 X105.307 Y99.268 E0.08867
G1 X104.904 Y99.904 E0.04470
G1 X104.025 Y101.114 E0.08867
G1 X103.545 Y101.694 E0.04470
G1 X102.480 Y102.822 E0.09202
G1 X101.972 Y103.300 E0.04135
G1 X100.821 Y104.252 E0.08866
G1 X100.211 Y104.695 E0.04470
G1 X98.949 Y105.496 E0.08868
G1 X98.289 Y105.859 E0.04470
G1 X96.936 Y106.496 E0.08867
G1 X96.236 Y106.773 E0.04470
G1 X94.814 Y107.235 E0.08867
G1 X94.084 Y107.422 E0.04470
G1 X92.616 Y107.702 E0.08866
G1 X91.869 Y107.797 E0.04470
G1 X90.377 Y107.891 E0.08867
G1 X89.623 Y107.891 E0.04470
G1 X88.131 Y107.797 E0.08867
G1 X87.384 Y107.702 E0.04470
G1 X85.916 Y107.422 E0.08866
G1 X85.186 Y107.235 E0.04470
G1 X83.764 Y106.773 E0.08867
G1 X83.064 Y106.496 E0.04470
G1 X81.711 Y105.859 E0.08867
G1 X81.051 Y105.496 E0.04470
G1 X79.789 Y104.695 E0.08868
G1 X79.179 Y104.252 E0.04470
G1 X78.028 Y103.300 E0.08867
G1 X77.478 Y102.784 E0.04470
G1 X76.455 Y101.694 E0.08867
G1 X75.975 Y101.114 E0.04470
G1 X75.096 Y99.904 E0.08867
G1 X74.693 Y99.268 E0.04470
G1 X73.972 Y97.958 E0.08867
G1 X73.676 Y97.328 E0.04135
G1 X73.101 Y95.887 E0.09202
G1 X72.869 Y95.170 E0.04470
G1 X72.497 Y93.722 E0.08867
G1 X72.356 Y92.982 E0.04470
G1 X72.168 Y91.499 E0.08867
G1 X72.121 Y90.747 E0.04471
G1 X72.121 Y89.253 E0.08865
G1 X72.168 Y88.501 E0.04470
G1 X72.356 Y87.018 E0.08867
G1 X72.497 Y86.278 E0.04470
G1 X72.869 Y84.830 E0.08867
G1 X73.101 Y84.113 E0.04470
G1 X73.652 Y82.723 E0.08867
G1 X73.972 Y82.042 E0.04470
G1 X74.693 Y80.732 E0.08867
G1 X75.096 Y80.096 E0.04470
G1 X75.975 Y78.886 E0.08867
G1 X76.455 Y78.306 E0.04470
G1 X77.437 Y77.260 E0.08511
G1 X77.804 Y77.563 F7800.000
G1 X78.353 Y77.047 E0.04470 F1926.995
G1 X79.459 Y76.132 E0.08512
G1 X80.068 Y75.690 E0.04470
G1 X81.280 Y74.921 E0.08512
G1 X81.940 Y74.558 E0.04471
G1 X83.239 Y73.947 E0.08512
G1 X83.939 Y73.669 E0.04471
G1 X85.304 Y73.226 E0.08512
G1 X86.034 Y73.038 E0.04471
G1 X87.444 Y72.770 E0.08512
G1 X88.191 Y72.675 E0.04470
G1 X89.623 Y72.585 E0.08513
G1 X90.377 Y72.585 E0.04470
G1 X91.809 Y72.675 E0.08511
G1 X92.557 Y72.770 E0.04472 F1926.995
G1 X93.966 Y73.038 E0.08512
G1 X94.696 Y73.226 E0.04470
G1 X96.060 Y73.669 E0.08512
G1 X96.761 Y73.947 E0.04471
G1 X98.059 Y74.558 E0.08511
G1 X98.720 Y74.921 E0.04471
G1 X99.932 Y75.690 E0.08513
G1 X100.541 Y76.132 E0.04470
G1 X101.647 Y77.047 E0.08512
G1 X102.196 Y77.563 E0.04470
G1 X103.178 Y78.609 E0.08513
G1 X103.623 Y79.146 E0.04135
G1 X104.502 Y80.350 E0.08847
G1 X104.906 Y80.987 E0.04470
G1 X105.597 Y82.244 E0.08512
G1 X105.918 Y82.926 E0.04470
G1 X106.446 Y84.260 E0.08513
G1 X106.679 Y84.977 E0.04470
G1 X107.036 Y86.367 E0.08513
G1 X107.177 Y87.107 E0.04470
G1 X107.357 Y88.531 E0.08513
G1 X107.404 Y89.283 E0.04470
G1 X107.404 Y90.717 E0.08512
G1 X107.357 Y91.470 E0.04470
G1 X107.177 Y92.893 E0.08512
G1 X107.036 Y93.633 E0.04470
G1 X106.679 Y95.023 E0.08513
G1 X106.446 Y95.740 E0.04470
G1 X105.918 Y97.074 E0.08513
G1 X105.597 Y97.756 E0.04470
G1 X104.906 Y99.013 E0.08513
G1 X104.502 Y99.650 E0.04470
G1 X103.659 Y100.810 E0.08513
G1 X103.178 Y101.391 E0.04470
G1 X102.196 Y102.437 E0.08512
G1 X101.647 Y102.953 E0.04470
G1 X100.541 Y103.868 E0.08512
G1 X99.932 Y104.310 E0.04470
G1 X98.720 Y105.079 E0.08513
G1 X98.060 Y105.442 E0.04470
G1 X96.761 Y106.053 E0.08512
G1 X96.061 Y106.331 E0.04470
G1 X94.696 Y106.774 E0.08513
G1 X93.966 Y106.962 E0.04470
G1 X92.556 Y107.230 E0.08512
G1 X91.809 Y107.325 E0.04470
G1 X90.377 Y107.415 E0.08513
G1 X89.623 Y107.415 E0.04470
G1 X88.191 Y107.325 E0.08513
G1 X87.444 Y107.230 E0.04470
G1 X86.034 Y106.962 E0.08512
G1 X85.304 Y106.774 E0.04470
G1 X83.939 Y106.331 E0.08513
G1 X83.239 Y106.053 E0.04470
G1 X81.940 Y105.442 E0.08512
G1 X81.280 Y105.079 E0.04470
G1 X80.068 Y104.310 E0.08513
G1 X79.459 Y103.868 E0.04470
G1 X78.353 Y102.953 E0.08512
G1 X77.804 Y102.437 E0.04470
G1 X76.822 Y101.391 E0.08512
G1 X76.377 Y100.854 E0.04135
G1 X75.498 Y99.650 E0.08847
G1 X75.094 Y99.013 E0.04470
G1 X74.403 Y97.756 E0.08513
G1 X74.106 Y97.125 E0.04135
G1 X73.554 Y95.740 E0.08847
G1 X73.321 Y95.023 E0.04470
G1 X72.964 Y93.633 E0.08513
G1 X72.823 Y92.893 E0.04470
G1 X72.643 Y91.469 E0.08513
G1 X72.596 Y90.717 E0.04471
G1 X72.596 Y89.283 E0.08511
G1 X72.643 Y88.531 E0.04470
G1 X72.823 Y87.107 E0.08513
G1 X72.964 Y86.367 E0.04470
G1 X73.321 Y84.977 E0.08513
G1 X73.554 Y84.260 E0.04470
G1 X74.082 Y82.926 E0.08513
G1 X74.403 Y82.244 E0.04470
G1 X75.094 Y80.987 E0.08513
G1 X75.498 Y80.350 E0.04470
G1 X76.341 Y79.190 E0.08513
G1 X76.822 Y78.609 E0.04470
G1 X77.763 Y77.607 E0.08156
G1 X78.130 Y77.910 F7800.000
G1 X78.679 Y77.394 E0.04470 F1926.995
G1 X79.738 Y76.517 E0.08158
G1 X80.348 Y76.074 E0.04470
G1 X81.509 Y75.337 E0.08158
G1 X82.170 Y74.974 E0.04471
G1 X83.414 Y74.389 E0.08157
G1 X84.114 Y74.111 E0.04471
G1 X85.477 Y73.672 E0.08492
G1 X86.152 Y73.499 E0.04135
G1 X87.503 Y73.241 E0.08158
G1 X88.251 Y73.147 E0.04470
G1 X89.623 Y73.061 E0.08158
G1 X90.377 Y73.061 E0.04470
G1 X91.749 Y73.147 E0.08156
G1 X92.497 Y73.241 E0.04472 F1926.995
G1 X93.848 Y73.499 E0.08157
G1 X94.578 Y73.686 E0.04470
G1 X95.885 Y74.111 E0.08158
G1 X96.586 Y74.389 E0.04471
G1 X97.830 Y74.974 E0.08157
G1 X98.491 Y75.337 E0.04471
G1 X99.652 Y76.074 E0.08159
G1 X100.262 Y76.517 E0.04470
G1 X101.321 Y77.394 E0.08158
G1 X101.870 Y77.910 E0.04470
G1 X102.812 Y78.912 E0.08158
G1 X103.256 Y79.449 E0.04135
G1 X104.101 Y80.605 E0.08493
G1 X104.504 Y81.242 E0.04470
G1 X105.167 Y82.447 E0.08158
G1 X105.488 Y83.128 E0.04470
G1 X105.994 Y84.407 E0.08158
G1 X106.227 Y85.124 E0.04470
G1 X106.569 Y86.456 E0.08158
G1 X106.710 Y87.196 E0.04470
G1 X106.882 Y88.560 E0.08159
G1 X106.930 Y89.312 E0.04470
G1 X106.930 Y90.688 E0.08158
G1 X106.882 Y91.440 E0.04470
G1 X106.710 Y92.804 E0.08158
G1 X106.569 Y93.544 E0.04470
G1 X106.227 Y94.876 E0.08158
G1 X105.994 Y95.593 E0.04470
G1 X105.488 Y96.872 E0.08158
G1 X105.167 Y97.553 E0.04470
G1 X104.504 Y98.759 E0.08158
G1 X104.101 Y99.395 E0.04470
G1 X103.292 Y100.507 E0.08158
G1 X102.812 Y101.088 E0.04470
G1 X101.870 Y102.090 E0.08158
G1 X101.321 Y102.606 E0.04470
G1 X100.262 Y103.483 E0.08158
G1 X99.652 Y103.926 E0.04470
G1 X98.491 Y104.663 E0.08159
G1 X97.830 Y105.026 E0.04470
G1 X96.586 Y105.611 E0.08158
G1 X95.886 Y105.889 E0.04470
G1 X94.578 Y106.314 E0.08158
G1 X93.848 Y106.501 E0.04470
G1 X92.497 Y106.759 E0.08158
G1 X91.749 Y106.853 E0.04470
G1 X90.377 Y106.939 E0.08159
G1 X89.623 Y106.939 E0.04470
G1 X88.251 Y106.853 E0.08159
G1 X87.503 Y106.759 E0.04470
G1 X86.152 Y106.501 E0.08158
G1 X85.422 Y106.314 E0.04470
G1 X84.114 Y105.889 E0.08159
G1 X83.414 Y105.611 E0.04470
G1 X82.170 Y105.026 E0.08158
G1 X81.509 Y104.663 E0.04470
G1 X80.348 Y103.926 E0.08159
G1 X79.738 Y103.483 E0.04470
G1 X78.679 Y102.606 E0.08158
G1 X78.130 Y102.090 E0.04470
G1 X77.188 Y101.088 E0.08158
G1 X76.708 Y100.507 E0.04470
G1 X75.899 Y99.395 E0.08158
G1 X75.496 Y98.758 E0.04470
G1 X74.833 Y97.553 E0.08158
G1 X74.536 Y96.923 E0.04135
G1 X74.006 Y95.593 E0.08493
G1 X73.773 Y94.876 E0.04470
G1 X73.431 Y93.544 E0.08158
G1 X73.290 Y92.804 E0.04470
G1 X73.118 Y91.440 E0.08158
G1 X73.070 Y90.687 E0.04471
G1 X73.070 Y89.312 E0.08157
G1 X73.118 Y88.560 E0.04470
G1 X73.290 Y87.196 E0.08159
G1 X73.431 Y86.456 E0.04470
G1 X73.773 Y85.124 E0.08158
G1 X73.989 Y84.461 E0.04135
G1 X74.512 Y83.128 E0.08493
G1 X74.833 Y82.447 E0.04470
G1 X75.496 Y81.241 E0.08158
G1 X75.899 Y80.605 E0.04470
G1 X76.708 Y79.493 E0.08158
G1 X77.188 Y78.912 E0.04470
G1 X78.088 Y77.953 E0.07802
G1 X78.455 Y78.256 F7800.000
G1 X79.004 Y77.741 E0.04470 F1926.995
G1 X80.018 Y76.902 E0.07804
G1 X80.628 Y76.459 E0.04470
G1 X81.738 Y75.754 E0.07803
G1 X82.399 Y75.391 E0.04471
G1 X83.589 Y74.831 E0.07803
G1 X84.290 Y74.554 E0.04471
G1 X85.595 Y74.133 E0.08139
G1 X86.271 Y73.960 E0.04135
G1 X87.563 Y73.713 E0.07804
G1 X88.310 Y73.619 E0.04470
G1 X89.623 Y73.536 E0.07804
G1 X90.377 Y73.536 E0.04470
G1 X91.689 Y73.619 E0.07802
G1 X92.437 Y73.713 E0.04472 F1926.995
G1 X93.784 Y73.974 E0.08138
G1 X94.459 Y74.147 E0.04135
G1 X95.710 Y74.554 E0.07803
G1 X96.411 Y74.831 E0.04471
G1 X97.601 Y75.391 E0.07803
G1 X98.262 Y75.754 E0.04471
G1 X99.372 Y76.459 E0.07805
G1 X99.982 Y76.902 E0.04470
G1 X100.996 Y77.741 E0.07804
G1 X101.545 Y78.256 E0.04470
G1 X102.445 Y79.215 E0.07804
G1 X102.890 Y79.752 E0.04135
G1 X103.699 Y80.860 E0.08138
G1 X104.103 Y81.496 E0.04470
G1 X104.736 Y82.649 E0.07804
G1 X105.057 Y83.331 E0.04470
G1 X105.542 Y84.554 E0.07804
G1 X105.774 Y85.271 E0.04470
G1 X106.102 Y86.545 E0.07804
G1 X106.243 Y87.285 E0.04470
G1 X106.408 Y88.590 E0.07804
G1 X106.455 Y89.342 E0.04470
G1 X106.455 Y90.658 E0.07803
G1 X106.408 Y91.410 E0.04470
G1 X106.243 Y92.715 E0.07804
G1 X106.102 Y93.455 E0.04470
G1 X105.774 Y94.729 E0.07804
G1 X105.542 Y95.446 E0.04470
G1 X105.057 Y96.669 E0.07804
G1 X104.736 Y97.351 E0.04470
G1 X104.103 Y98.504 E0.07804
G1 X103.699 Y99.140 E0.04470
G1 X102.926 Y100.204 E0.07804
G1 X102.445 Y100.785 E0.04470
G1 X101.545 Y101.744 E0.07804
G1 X100.996 Y102.259 E0.04470
G1 X99.982 Y103.098 E0.07803
G1 X99.372 Y103.541 E0.04470
G1 X98.262 Y104.246 E0.07805
G1 X97.601 Y104.609 E0.04470
G1 X96.411 Y105.169 E0.07804
G1 X95.710 Y105.446 E0.04470
G1 X94.459 Y105.853 E0.07804
G1 X93.729 Y106.040 E0.04470
G1 X92.437 Y106.287 E0.07803
G1 X91.690 Y106.381 E0.04470
G1 X90.377 Y106.464 E0.07804
G1 X89.623 Y106.464 E0.04470
G1 X88.310 Y106.381 E0.07804
G1 X87.563 Y106.287 E0.04470
G1 X86.271 Y106.040 E0.07804
G1 X85.541 Y105.853 E0.04470
G1 X84.290 Y105.446 E0.07804
G1 X83.589 Y105.169 E0.04470
G1 X82.399 Y104.609 E0.07804
G1 X81.738 Y104.246 E0.04470
G1 X80.628 Y103.541 E0.07805
G1 X80.018 Y103.098 E0.04470
G1 X79.004 Y102.259 E0.07804
G1 X78.455 Y101.744 E0.04470
G1 X77.555 Y100.785 E0.07804
G1 X77.074 Y100.204 E0.04470
G1 X76.301 Y99.140 E0.07804
G1 X75.897 Y98.504 E0.04470
G1 X75.264 Y97.351 E0.07804
G1 X74.967 Y96.720 E0.04135
G1 X74.458 Y95.446 E0.08139
G1 X74.226 Y94.729 E0.04470
G1 X73.898 Y93.455 E0.07804
G1 X73.757 Y92.715 E0.04470
G1 X73.592 Y91.410 E0.07804
G1 X73.545 Y90.658 E0.04471
G1 X73.545 Y89.342 E0.07802
G1 X73.592 Y88.590 E0.04470
G1 X73.757 Y87.285 E0.07804
G1 X73.898 Y86.545 E0.04470
G1 X74.226 Y85.271 E0.07804
G1 X74.441 Y84.608 E0.04135
G1 X74.943 Y83.331 E0.08139
G1 X75.264 Y82.649 E0.04470
G1 X75.897 Y81.496 E0.07804
G1 X76.301 Y80.860 E0.04470
G1 X77.074 Y79.796 E0.07804
G1 X77.555 Y79.215 E0.04470
G1 X78.414 Y78.300 E0.07448
G1 F6240
G1 X79.004 Y77.741 E-0.44581
G1 F6240
G1 X80.018 Y76.902 E-0.72100
G1 F6240
G1 X80.119 Y76.829 E-0.06819
G1 E-0.06500 F3600.00000
G1 X93.096 Y92.907 F7800.000
G1 E1.30000 F3600.00000
G1 X92.707 Y93.272 E0.03164 F963.497
G1 X92.276 Y93.586 E0.03164
G1 X91.808 Y93.843 E0.03164
G1 X91.312 Y94.039 E0.03164
G1 X90.796 Y94.172 E0.03164
G1 X90.267 Y94.239 E0.03164
G1 X89.733 Y94.239 E0.03164
G1 X89.204 Y94.172 E0.03164
G1 X88.688 Y94.039 E0.03164
G1 X88.192 Y93.843 E0.03164
G1 X87.724 Y93.586 E0.03164
G1 X87.293 Y93.272 E0.03164
G1 X86.904 Y92.907 E0.03164
G1 X86.564 Y92.496 E0.03164
G1 X86.278 Y92.046 E0.03164
G1 X86.051 Y91.563 E0.03168
G1 X85.885 Y91.049 E0.03203
G1 X85.786 Y90.532 E0.03121
G1 X85.753 Y89.999 E0.03168
G1 X85.788 Y89.461 E0.03203
G1 X85.886 Y88.944 E0.03121
G1 X86.051 Y88.437 E0.03164
G1 X86.278 Y87.954 E0.03164
