; generated by Slic3r 1.2.9 on 2019-05-05 at 10:22:08

; external perimeters extrusion width = 0.40mm
; perimeters extrusion width = 0.56mm
; infill extrusion width = 0.56mm
; solid infill extrusion width = 0.56mm
; top infill extrusion width = 0.56mm

M107
M190 S60 ; set bed temperature
M104 S215 ; set temperature
G28 ; home all axes
G92 E0.0 ; reset extruder
M109 S215 ; wait for temperature to be reached
G21 ; set units to millimeters
G90 ; use absolute coordinates
M83 ; use relative distances for extrusion
G1 E-1.30000 F3600.00000
G1 Z0.300 F7800.000
G1 X76.787 Y76.529 F7800.000
G1 E1.30000 F3600.00000
M204 S500
G1 X77.383 Y75.968 E0.04855 F2068.333
G1 X78.581 Y74.977 E0.09222
G1 X79.242 Y74.498 E0.04842
G1 X80.554 Y73.665 E0.09220
G1 X81.269 Y73.272 E0.04842
G1 X82.676 Y72.610 E0.09222
G1 X83.435 Y72.309 E0.04842
G1 X84.913 Y71.829 E0.09221
G1 X85.704 Y71.626 E0.04842
G1 X87.232 Y71.334 E0.09232
G1 X88.041 Y71.232 E0.04832
G1 X89.592 Y71.135 E0.09221
G1 X90.408 Y71.135 E0.04842
G1 X91.952 Y71.231 E0.09174
G1 X92.769 Y71.335 E0.04889 F2068.333
G1 X94.295 Y71.626 E0.09212
G1 X95.087 Y71.829 E0.04852
G1 X96.564 Y72.309 E0.09211
G1 X97.324 Y72.610 E0.04853
G1 X98.730 Y73.271 E0.09216
G1 X99.446 Y73.665 E0.04848
G1 X100.758 Y74.498 E0.09220
G1 X101.419 Y74.977 E0.04842
G1 X102.617 Y75.968 E0.09222
G1 X103.212 Y76.527 E0.04842
G1 X104.276 Y77.660 E0.09222
G1 X104.799 Y78.293 E0.04870
G1 X105.710 Y79.547 E0.09193
G1 X106.147 Y80.236 E0.04842
G1 X106.896 Y81.598 E0.09221
G1 X107.244 Y82.337 E0.04842
G1 X107.816 Y83.782 E0.09222
G1 X108.068 Y84.559 E0.04842
G1 X108.455 Y86.064 E0.09221
G1 X108.608 Y86.866 E0.04842
G1 X108.802 Y88.408 E0.09220
G1 X108.854 Y89.223 E0.04842
G1 X108.854 Y90.776 E0.09216
G1 X108.802 Y91.592 E0.04849
G1 X108.608 Y93.134 E0.09221
G1 X108.455 Y93.936 E0.04842
G1 X108.068 Y95.441 E0.09221
G1 X107.816 Y96.218 E0.04842
G1 X107.244 Y97.663 E0.09222
G1 X106.896 Y98.402 E0.04842
G1 X106.147 Y99.764 E0.09221
G1 X105.710 Y100.453 E0.04843
G1 X104.796 Y101.711 E0.09220
G1 X104.277 Y102.338 E0.04832
G1 X103.212 Y103.473 E0.09232
G1 X102.617 Y104.032 E0.04842
G1 X101.419 Y105.023 E0.09222
G1 X100.758 Y105.502 E0.04842
G1 X99.446 Y106.335 E0.09220
G1 X98.731 Y106.728 E0.04842
G1 X97.324 Y107.390 E0.09222
G1 X96.565 Y107.691 E0.04842
G1 X95.087 Y108.171 E0.09221
G1 X94.296 Y108.374 E0.04842
G1 X92.769 Y108.665 E0.09222
G1 X91.959 Y108.768 E0.04842
G1 X90.408 Y108.865 E0.09221
G1 X89.592 Y108.865 E0.04842
G1 X88.041 Y108.768 E0.09218
G1 X87.231 Y108.665 E0.04845
G1 X85.704 Y108.374 E0.09222
G1 X84.913 Y108.171 E0.04842
G1 X83.443 Y107.694 E0.09170
G1 X82.676 Y107.390 E0.04893
G1 X81.273 Y106.730 E0.09199
G1 X80.554 Y106.335 E0.04865
G1 X79.242 Y105.502 E0.09220
G1 X78.581 Y105.023 E0.04842
G1 X77.385 Y104.033 E0.09209
G1 X76.788 Y103.473 E0.04856
G1 X75.724 Y102.340 E0.09222
G1 X75.204 Y101.711 E0.04842
G1 X74.290 Y100.453 E0.09221
G1 X73.853 Y99.764 E0.04842
G1 X73.104 Y98.402 E0.09221
G1 X72.756 Y97.663 E0.04842
G1 X72.184 Y96.218 E0.09222
G1 X71.932 Y95.441 E0.04842
G1 X71.545 Y93.936 E0.09221
G1 X71.391 Y93.127 E0.04885
G1 X71.198 Y91.592 E0.09178
G1 X71.146 Y90.773 E0.04869
G1 X71.146 Y89.227 E0.09172
G1 X71.198 Y88.408 E0.04866
G1 X71.392 Y86.866 E0.09220
G1 X71.545 Y86.066 E0.04832
G1 X71.932 Y84.559 E0.09231
G1 X72.186 Y83.777 E0.04874
G1 X72.756 Y82.337 E0.09190
G1 X73.104 Y81.597 E0.04848
G1 X73.853 Y80.236 E0.09215
G1 X74.290 Y79.547 E0.04842
G1 X75.204 Y78.289 E0.09221
G1 X75.725 Y77.659 E0.04854
G1 X76.746 Y76.572 E0.08841
G1 X77.112 Y76.875 F7800.000
G1 X77.709 Y76.315 E0.04855 F2068.333
G1 X78.861 Y75.362 E0.08868
G1 X79.521 Y74.882 E0.04842
G1 X80.783 Y74.082 E0.08866
G1 X81.498 Y73.688 E0.04842
G1 X82.851 Y73.052 E0.08867
G1 X83.610 Y72.751 E0.04842
G1 X85.031 Y72.290 E0.08867
G1 X85.822 Y72.087 E0.04842
G1 X87.292 Y71.806 E0.08878
G1 X88.100 Y71.704 E0.04832
G1 X89.592 Y71.610 E0.08866
G1 X90.408 Y71.610 E0.04842
G1 X91.892 Y71.703 E0.08822
G1 X92.710 Y71.806 E0.04887 F2068.333
G1 X94.176 Y72.086 E0.08858
G1 X94.969 Y72.290 E0.04852
G1 X96.389 Y72.751 E0.08857
G1 X97.149 Y73.052 E0.04852
G1 X98.501 Y73.688 E0.08862
G1 X99.217 Y74.082 E0.04848
G1 X100.479 Y74.882 E0.08866
G1 X101.139 Y75.362 E0.04842
G1 X102.291 Y76.315 E0.08868
G1 X102.886 Y76.874 E0.04842
G1 X103.909 Y77.964 E0.08868
G1 X104.433 Y78.596 E0.04869
G1 X105.308 Y79.802 E0.08840
G1 X105.746 Y80.491 E0.04842
G1 X106.466 Y81.801 E0.08867
G1 X106.813 Y82.539 E0.04842
G1 X107.364 Y83.929 E0.08868
G1 X107.616 Y84.706 E0.04842
G1 X107.987 Y86.153 E0.08867
G1 X108.140 Y86.955 E0.04842
G1 X108.328 Y88.438 E0.08866
G1 X108.379 Y89.253 E0.04842
G1 X108.379 Y90.746 E0.08862
G1 X108.328 Y91.562 E0.04849
G1 X108.140 Y93.045 E0.08866
G1 X107.987 Y93.847 E0.04842
G1 X107.616 Y95.294 E0.08867
G1 X107.364 Y96.071 E0.04842
G1 X106.813 Y97.461 E0.08868
G1 X106.466 Y98.199 E0.04842
G1 X105.746 Y99.509 E0.08866
G1 X105.308 Y100.198 E0.04843
G1 X104.430 Y101.407 E0.08866
G1 X103.910 Y102.035 E0.04832
G1 X102.886 Y103.126 E0.08877
G1 X102.291 Y103.685 E0.04842
G1 X101.139 Y104.638 E0.08868
G1 X100.479 Y105.118 E0.04842
G1 X99.217 Y105.918 E0.08866
G1 X98.502 Y106.312 E0.04842
G1 X97.149 Y106.948 E0.08868
G1 X96.390 Y107.249 E0.04842
G1 X94.969 Y107.710 E0.08867
G1 X94.178 Y107.913 E0.04842
G1 X92.710 Y108.194 E0.08868
G1 X91.900 Y108.296 E0.04842
G1 X90.408 Y108.390 E0.08866
G1 X89.592 Y108.390 E0.04842
G1 X88.101 Y108.296 E0.08863
G1 X87.290 Y108.194 E0.04845
G1 X85.822 Y107.913 E0.08868
G1 X85.031 Y107.710 E0.04842
G1 X83.617 Y107.252 E0.08818
G1 X82.851 Y106.948 E0.04891
G1 X81.502 Y106.313 E0.08845
G1 X80.783 Y105.918 E0.04864
G1 X79.521 Y105.118 E0.08866
G1 X78.861 Y104.638 E0.04842
G1 X77.710 Y103.686 E0.08855
G1 X77.114 Y103.126 E0.04855
G1 X76.091 Y102.036 E0.08867
G1 X75.570 Y101.407 E0.04842
G1 X74.692 Y100.198 E0.08866
G1 X74.254 Y99.509 E0.04842
G1 X73.534 Y98.199 E0.08867
G1 X73.187 Y97.461 E0.04842
G1 X72.636 Y96.071 E0.08868
G1 X72.384 Y95.294 E0.04842
G1 X72.013 Y93.847 E0.08867
G1 X71.858 Y93.038 E0.04883
G1 X71.672 Y91.562 E0.08825
G1 X71.621 Y90.743 E0.04868
G1 X71.621 Y89.256 E0.08820
G1 X71.672 Y88.438 E0.04865
G1 X71.860 Y86.955 E0.08866
G1 X72.012 Y86.155 E0.04832
G1 X72.384 Y84.706 E0.08877
G1 X72.638 Y83.924 E0.04873
G1 X73.187 Y82.539 E0.08837
G1 X73.535 Y81.800 E0.04848
G1 X74.254 Y80.491 E0.08861
G1 X74.692 Y79.802 E0.04842
G1 X75.570 Y78.593 E0.08866
G1 X76.092 Y77.962 E0.04854
G1 X77.071 Y76.919 E0.08488
G1 X77.438 Y77.222 F7800.000
G1 X78.035 Y76.662 E0.04854 F2068.333
G1 X79.140 Y75.747 E0.08513
G1 X79.801 Y75.267 E0.04842
G1 X81.012 Y74.498 E0.08512
G1 X81.727 Y74.105 E0.04842
G1 X83.026 Y73.494 E0.08513
G1 X83.785 Y73.194 E0.04842
G1 X85.150 Y72.750 E0.08513
G1 X85.940 Y72.547 E0.04842
G1 X87.352 Y72.278 E0.08523
G1 X88.160 Y72.176 E0.04832
G1 X89.592 Y72.086 E0.08512
G1 X90.408 Y72.086 E0.04842
G1 X91.833 Y72.175 E0.08469
G1 X92.650 Y72.278 E0.04885 F2068.333
G1 X94.061 Y72.548 E0.08523
G1 X94.850 Y72.750 E0.04832
G1 X96.214 Y73.193 E0.08503
G1 X96.974 Y73.494 E0.04852
G1 X98.272 Y74.105 E0.08508
G1 X98.988 Y74.498 E0.04848
G1 X100.199 Y75.267 E0.08512
G1 X100.860 Y75.747 E0.04842
G1 X101.965 Y76.662 E0.08513
G1 X102.561 Y77.221 E0.04842
G1 X103.543 Y78.267 E0.08513
G1 X104.066 Y78.899 E0.04868
G1 X104.907 Y80.057 E0.08487
G1 X105.344 Y80.746 E0.04842
G1 X106.035 Y82.003 E0.08512
G1 X106.383 Y82.742 E0.04842
G1 X106.911 Y84.076 E0.08513
G1 X107.163 Y84.852 E0.04842
G1 X107.520 Y86.242 E0.08513
G1 X107.673 Y87.044 E0.04842
G1 X107.853 Y88.468 E0.08512
G1 X107.904 Y89.282 E0.04842
G1 X107.904 Y90.717 E0.08508
G1 X107.853 Y91.532 E0.04848
G1 X107.673 Y92.956 E0.08512
G1 X107.520 Y93.758 E0.04842
G1 X107.163 Y95.148 E0.08512
G1 X106.911 Y95.924 E0.04842
G1 X106.383 Y97.258 E0.08514
G1 X106.035 Y97.997 E0.04842
G1 X105.344 Y99.254 E0.08512
G1 X104.907 Y99.943 E0.04843
G1 X104.063 Y101.104 E0.08512
G1 X103.544 Y101.732 E0.04832
G1 X102.561 Y102.779 E0.08523
G1 X101.965 Y103.338 E0.04842
G1 X100.860 Y104.253 E0.08514
G1 X100.199 Y104.733 E0.04842
G1 X98.988 Y105.502 E0.08511
G1 X98.273 Y105.895 E0.04842
G1 X96.974 Y106.506 E0.08513
G1 X96.215 Y106.806 E0.04842
G1 X94.850 Y107.250 E0.08513
G1 X94.060 Y107.453 E0.04842
G1 X92.650 Y107.722 E0.08513
G1 X91.840 Y107.824 E0.04842
G1 X90.408 Y107.914 E0.08512
G1 X89.592 Y107.914 E0.04842
G1 X88.160 Y107.824 E0.08509
G1 X87.350 Y107.722 E0.04845
G1 X85.940 Y107.453 E0.08513
G1 X85.150 Y107.250 E0.04842
G1 X83.792 Y106.809 E0.08466
G1 X83.026 Y106.506 E0.04889
G1 X81.729 Y105.896 E0.08502
G1 X81.012 Y105.502 E0.04854
G1 X79.801 Y104.733 E0.08512
G1 X79.140 Y104.253 E0.04842
G1 X78.036 Y103.340 E0.08501
G1 X77.439 Y102.779 E0.04855
G1 X76.457 Y101.733 E0.08513
G1 X75.937 Y101.104 E0.04842
G1 X75.093 Y99.943 E0.08512
G1 X74.656 Y99.254 E0.04842
G1 X73.965 Y97.997 E0.08512
G1 X73.617 Y97.258 E0.04842
G1 X73.089 Y95.924 E0.08513
G1 X72.837 Y95.148 E0.04842
G1 X72.480 Y93.758 E0.08513
G1 X72.326 Y92.949 E0.04881
G1 X72.147 Y91.532 E0.08473
G1 X72.095 Y90.714 E0.04867
G1 X72.095 Y89.286 E0.08467
G1 X72.147 Y88.468 E0.04864
G1 X72.327 Y87.044 E0.08512
G1 X72.479 Y86.244 E0.04833
G1 X72.837 Y84.853 E0.08522
G1 X73.090 Y84.071 E0.04872
G1 X73.617 Y82.742 E0.08484
G1 X73.965 Y82.002 E0.04848
G1 X74.656 Y80.746 E0.08507
G1 X75.093 Y80.057 E0.04842
G1 X75.937 Y78.896 E0.08512
G1 X76.458 Y78.265 E0.04853
G1 X77.397 Y77.266 E0.08134
G1 X77.764 Y77.569 F7800.000
G1 X78.360 Y77.009 E0.04854 F2068.333
G1 X79.420 Y76.132 E0.08159
G1 X80.080 Y75.652 E0.04842
G1 X81.241 Y74.915 E0.08157
G1 X81.957 Y74.522 E0.04842
G1 X83.201 Y73.936 E0.08159
G1 X83.960 Y73.636 E0.04842
G1 X85.268 Y73.211 E0.08158
G1 X86.059 Y73.008 E0.04842
G1 X87.411 Y72.750 E0.08169
G1 X88.219 Y72.648 E0.04832
G1 X89.592 Y72.562 E0.08158
G1 X90.408 Y72.562 E0.04842
G1 X91.774 Y72.647 E0.08117
G1 X92.590 Y72.750 E0.04884 F2068.333
G1 X93.940 Y73.008 E0.08150
G1 X94.732 Y73.211 E0.04851
G1 X96.039 Y73.635 E0.08149
G1 X96.799 Y73.936 E0.04851
G1 X98.043 Y74.522 E0.08154
G1 X98.759 Y74.915 E0.04847
G1 X99.920 Y75.652 E0.08157
G1 X100.580 Y76.132 E0.04842
G1 X101.640 Y77.009 E0.08159
G1 X102.235 Y77.567 E0.04842
G1 X103.176 Y78.570 E0.08159
G1 X103.699 Y79.202 E0.04867
G1 X104.505 Y80.311 E0.08133
G1 X104.942 Y81.001 E0.04842
G1 X105.605 Y82.206 E0.08158
G1 X105.952 Y82.944 E0.04842
G1 X106.459 Y84.223 E0.08159
G1 X106.711 Y84.999 E0.04842
G1 X107.053 Y86.332 E0.08158
G1 X107.206 Y87.133 E0.04842
G1 X107.378 Y88.498 E0.08158
G1 X107.430 Y89.312 E0.04842
G1 X107.430 Y90.687 E0.08153
G1 X107.378 Y91.502 E0.04848
G1 X107.206 Y92.867 E0.08158
G1 X107.053 Y93.668 E0.04842
G1 X106.711 Y95.001 E0.08158
G1 X106.459 Y95.777 E0.04842
G1 X105.952 Y97.056 E0.08159
G1 X105.605 Y97.794 E0.04842
G1 X104.942 Y98.999 E0.08158
G1 X104.505 Y99.689 E0.04843
G1 X103.697 Y100.801 E0.08157
G1 X103.178 Y101.429 E0.04832
G1 X102.235 Y102.433 E0.08169
G1 X101.640 Y102.991 E0.04842
G1 X100.580 Y103.868 E0.08159
G1 X99.920 Y104.348 E0.04842
G1 X98.759 Y105.085 E0.08157
G1 X98.043 Y105.478 E0.04842
G1 X96.799 Y106.064 E0.08159
G1 X96.040 Y106.364 E0.04842
G1 X94.732 Y106.789 E0.08158
G1 X93.941 Y106.992 E0.04842
G1 X92.590 Y107.250 E0.08159
G1 X91.781 Y107.352 E0.04842
G1 X90.408 Y107.438 E0.08158
G1 X89.592 Y107.438 E0.04842
G1 X88.220 Y107.352 E0.08155
G1 X87.410 Y107.250 E0.04845
G1 X86.059 Y106.992 E0.08159
G1 X85.268 Y106.789 E0.04842
G1 X83.967 Y106.367 E0.08113
G1 X83.201 Y106.064 E0.04888
G1 X81.960 Y105.480 E0.08138
G1 X81.241 Y105.085 E0.04863
G1 X80.080 Y104.348 E0.08157
G1 X79.420 Y103.868 E0.04842
G1 X78.362 Y102.993 E0.08147
G1 X77.765 Y102.433 E0.04854
G1 X76.824 Y101.430 E0.08159
G1 X76.303 Y100.801 E0.04842
G1 X75.495 Y99.689 E0.08158
G1 X75.058 Y98.999 E0.04842
G1 X74.395 Y97.794 E0.08158
G1 X74.047 Y97.056 E0.04842
G1 X73.541 Y95.777 E0.08159
G1 X73.289 Y95.001 E0.04842
G1 X72.947 Y93.668 E0.08158
G1 X72.793 Y92.860 E0.04880
G1 X72.622 Y91.502 E0.08120
G1 X72.570 Y90.684 E0.04866
G1 X72.570 Y89.316 E0.08115
G1 X72.622 Y88.498 E0.04864
G1 X72.794 Y87.133 E0.08157
G1 X72.947 Y86.333 E0.04832
G1 X73.289 Y84.999 E0.08168
G1 X73.543 Y84.219 E0.04871
G1 X74.048 Y82.944 E0.08131
G1 X74.395 Y82.205 E0.04847
G1 X75.058 Y81.001 E0.08153
G1 X75.495 Y80.311 E0.04842
G1 X76.303 Y79.199 E0.08158
G1 X76.825 Y78.569 E0.04853
G1 X77.723 Y77.612 E0.07781
G1 X78.089 Y77.915 F7800.000
G1 X78.686 Y77.355 E0.04853 F2068.333
G1 X79.699 Y76.517 E0.07805
G1 X80.360 Y76.037 E0.04842
G1 X81.470 Y75.332 E0.07803
G1 X82.186 Y74.939 E0.04842
G1 X83.376 Y74.379 E0.07804
G1 X84.135 Y74.078 E0.04842
G1 X85.386 Y73.672 E0.07804
G1 X86.177 Y73.469 E0.04842
G1 X87.471 Y73.222 E0.07815
G1 X88.279 Y73.120 E0.04832
G1 X89.592 Y73.037 E0.07803
G1 X90.408 Y73.037 E0.04842
G1 X91.714 Y73.119 E0.07764
G1 X92.531 Y73.222 E0.04882 F2068.333
G1 X93.822 Y73.468 E0.07796
G1 X94.614 Y73.672 E0.04851
G1 X95.864 Y74.078 E0.07795
G1 X96.624 Y74.379 E0.04851
G1 X97.814 Y74.938 E0.07799
G1 X98.530 Y75.332 E0.04847
G1 X99.640 Y76.037 E0.07803
G1 X100.301 Y76.517 E0.04842
G1 X101.314 Y77.355 E0.07805
G1 X101.909 Y77.914 E0.04842
G1 X102.810 Y78.873 E0.07805
G1 X103.333 Y79.505 E0.04866
G1 X104.103 Y80.566 E0.07780
G1 X104.541 Y81.255 E0.04842
G1 X105.175 Y82.408 E0.07804
G1 X105.522 Y83.147 E0.04842
G1 X106.006 Y84.370 E0.07805
G1 X106.259 Y85.146 E0.04842
G1 X106.586 Y86.421 E0.07804
G1 X106.739 Y87.222 E0.04842
G1 X106.904 Y88.527 E0.07803
G1 X106.955 Y89.342 E0.04842
G1 X106.955 Y90.657 E0.07799
G1 X106.904 Y91.473 E0.04848
G1 X106.739 Y92.778 E0.07803
G1 X106.586 Y93.579 E0.04842
G1 X106.259 Y94.854 E0.07804
G1 X106.006 Y95.630 E0.04842
G1 X105.522 Y96.853 E0.07805
G1 X105.175 Y97.592 E0.04842
G1 X104.541 Y98.745 E0.07804
G1 X104.103 Y99.434 E0.04843
G1 X103.330 Y100.498 E0.07803
G1 X102.811 Y101.126 E0.04832
G1 X101.909 Y102.086 E0.07814
G1 X101.314 Y102.645 E0.04842
G1 X100.301 Y103.483 E0.07805
G1 X99.640 Y103.963 E0.04842
G1 X98.530 Y104.668 E0.07803
G1 X97.814 Y105.061 E0.04842
G1 X96.624 Y105.621 E0.07804
G1 X95.865 Y105.922 E0.04842
G1 X94.614 Y106.328 E0.07804
G1 X93.823 Y106.531 E0.04842
G1 X92.531 Y106.778 E0.07805
G1 X91.721 Y106.880 E0.04842
G1 X90.408 Y106.963 E0.07804
G1 X89.592 Y106.963 E0.04842
G1 X88.279 Y106.880 E0.07801
G1 X87.469 Y106.778 E0.04845
G1 X86.177 Y106.531 E0.07805
G1 X85.386 Y106.328 E0.04842
G1 X84.142 Y105.925 E0.07761
G1 X83.376 Y105.621 E0.04886
G1 X82.184 Y105.060 E0.07814
G1 X81.470 Y104.668 E0.04832
G1 X80.360 Y103.963 E0.07803
G1 X79.699 Y103.483 E0.04842
G1 X78.687 Y102.646 E0.07794
G1 X78.091 Y102.086 E0.04854
G1 X77.190 Y101.127 E0.07804
G1 X76.670 Y100.498 E0.04842
G1 X75.897 Y99.434 E0.07804
G1 X75.459 Y98.745 E0.04842
G1 X74.825 Y97.592 E0.07804
G1 X74.478 Y96.853 E0.04842
G1 X73.994 Y95.630 E0.07805
G1 X73.741 Y94.854 E0.04842
G1 X73.414 Y93.579 E0.07804
G1 X73.260 Y92.772 E0.04878
G1 X73.096 Y91.473 E0.07767
G1 X73.045 Y90.654 E0.04865
G1 X73.045 Y89.346 E0.07763
G1 X73.096 Y88.527 E0.04863
G1 X73.261 Y87.222 E0.07803
G1 X73.414 Y86.422 E0.04833
G1 X73.741 Y85.146 E0.07813
G1 X73.995 Y84.366 E0.04869
G1 X74.478 Y83.147 E0.07778
G1 X74.826 Y82.408 E0.04847
G1 X75.459 Y81.255 E0.07799
G1 X75.897 Y80.566 E0.04842
G1 X76.670 Y79.502 E0.07803
G1 X77.191 Y78.872 E0.04853
G1 X78.048 Y77.959 E0.07428
G1 F6240
G1 X78.686 Y77.355 E-0.48121
G1 F6240
G1 X79.699 Y76.517 E-0.72108
G1 F6240
G1 X79.748 Y76.482 E-0.03270
G1 E-0.06500 F3600.00000
G1 X93.643 Y93.421 F7800.000
G1 E1.30000 F3600.00000
G1 X93.185 Y93.850 E0.03723 F1034.167
G1 X92.678 Y94.219 E0.03723
G1 X92.128 Y94.521 E0.03723
G1 X91.544 Y94.753 E0.03723
G1 X90.936 Y94.909 E0.03723
G1 X90.314 Y94.987 E0.03723
G1 X89.686 Y94.987 E0.03723
G1 X89.064 Y94.909 E0.03723
G1 X88.456 Y94.753 E0.03723
G1 X87.872 Y94.521 E0.03723
G1 X87.322 Y94.219 E0.03723
G1 X86.815 Y93.850 E0.03723
G1 X86.357 Y93.421 E0.03723
G1 X85.957 Y92.937 E0.03723
G1 X85.621 Y92.407 E0.03723
G1 X85.354 Y91.840 E0.03723
G1 X85.160 Y91.242 E0.03725
G1 X85.042 Y90.622 E0.03748
G1 X85.003 Y90.000 E0.03696
G1 X85.042 Y89.374 E0.03723
G1 X85.160 Y88.757 E0.03723
G1 X85.354 Y88.160 E0.03723
G1 X85.621 Y87.593 E0.03723
