; generated by Slic3r 1.2.9 on 2019-05-19 at 09:26:05

; external perimeters extrusion width = 0.40mm
; perimeters extrusion width = 0.56mm
; infill extrusion width = 0.56mm
; solid infill extrusion width = 0.56mm
; top infill extrusion width = 0.56mm

M107
M190 S60 ; set bed temperature
M104 S215 ; set temperature
G28 ; home all axes
G92 E0.0 ; reset extruder
M109 S215 ; wait for temperature to be reached
G21 ; set units to millimeters
G90 ; use absolute coordinates
M83 ; use relative distances for extrusion
G1 E-1.30000 F3600.00000
G1 Z0.300 F7800.000
G1 X43.589 Y51.725 F7800.000
G1 E1.30000 F3600.00000
M204 S500
G1 X45.996 Y50.014 E0.17519 F2160.000
G1 X48.773 Y49.009 E0.17519
G1 X51.078 Y48.764 E0.13750
G1 X129.078 Y48.764 E4.62711
G1 X132.004 Y49.162 E0.17519
G1 X134.717 Y50.327 E0.17519 F2160.000
G1 X137.020 Y52.176 E0.17519
G1 X138.746 Y54.572 E0.17519
G1 X139.769 Y57.342 E0.17519
G1 X140.029 Y59.715 E0.14158
G1 X140.029 Y74.752 E0.89204
G1 X139.874 Y120.322 E2.70332
G1 X139.465 Y123.247 E0.17519
G1 X138.291 Y125.957 E0.17519
G1 X136.435 Y128.254 E0.17519
G1 X134.032 Y129.971 E0.17519
G1 X131.258 Y130.984 E0.17519
G1 X128.922 Y131.236 E0.13938
G1 X50.922 Y131.236 E4.62711
G1 X47.996 Y130.838 E0.17519
G1 X45.283 Y129.673 E0.17519
G1 X42.980 Y127.824 E0.17519
G1 X41.254 Y125.428 E0.17519
G1 X40.231 Y122.658 E0.17519
G1 X39.971 Y120.285 E0.14158
G1 X39.971 Y84.285 E2.13559
G1 X40.127 Y59.646 E1.46168
G1 X40.543 Y56.722 E0.17519
G1 X41.726 Y54.016 E0.17519
G1 X43.551 Y51.771 E0.17163
G1 X43.969 Y52.044 F7800.000
G1 X44.055 Y51.942 E0.00786 F2160.000
G1 X46.444 Y50.320 E0.17132
G1 X49.185 Y49.412 E0.17132
G1 X51.078 Y49.239 E0.11272
G1 X129.078 Y49.239 E4.62711
G1 X131.938 Y49.637 E0.17132
G1 X134.581 Y50.801 E0.17132 F2160.000
G1 X136.806 Y52.643 E0.17132
G1 X138.443 Y55.022 E0.17132
G1 X139.369 Y57.757 E0.17132
G1 X139.553 Y59.715 E0.11663
G1 X139.553 Y74.751 E0.89195
G1 X139.398 Y120.321 E2.70332
G1 X138.990 Y123.180 E0.17132
G1 X137.817 Y125.819 E0.17132
G1 X135.968 Y128.037 E0.17132
G1 X133.584 Y129.667 E0.17132
G1 X130.845 Y130.583 E0.17132
G1 X128.922 Y130.761 E0.11452
G1 X50.922 Y130.761 E4.62711
G1 X48.062 Y130.363 E0.17132
G1 X45.419 Y129.199 E0.17132
G1 X43.194 Y127.357 E0.17132
G1 X41.557 Y124.978 E0.17132
G1 X40.631 Y122.242 E0.17132
G1 X40.447 Y120.285 E0.11663
G1 X40.447 Y84.285 E2.13559
G1 X40.602 Y59.649 E1.46150
G1 X41.018 Y56.791 E0.17132
G1 X42.199 Y54.155 E0.17132
G1 X43.931 Y52.090 E0.15990
G1 F6240
G1 X44.055 Y51.942 E-0.10555
G1 F6240
G1 X45.759 Y50.785 E-1.12945
G1 E-0.06500 F3600.00000
G1 X57.007 Y94.305 F7800.000
G1 E1.30000 F3600.00000
G1 X56.675 Y94.546 E0.02437 F1080.000
G1 X56.315 Y94.744 E0.02437
G1 X55.933 Y94.896 E0.02436
G1 X55.535 Y94.998 E0.02437
G1 X55.128 Y95.049 E0.02436
G1 X54.717 Y95.049 E0.02437
G1 X54.310 Y94.998 E0.02436
G1 X53.912 Y94.896 E0.02437
G1 X53.530 Y94.744 E0.02436
G1 X53.170 Y94.546 E0.02437
G1 X52.838 Y94.305 E0.02437
G1 X52.538 Y94.024 E0.02436
G1 X52.276 Y93.707 E0.02437
G1 X52.056 Y93.361 E0.02436
G1 X51.882 Y92.989 E0.02436
G1 X51.755 Y92.598 E0.02437
G1 X51.678 Y92.195 E0.02436
G1 X51.652 Y91.785 E0.02436
G1 X51.678 Y91.375 E0.02436
G1 X51.755 Y90.972 E0.02436
G1 X51.882 Y90.581 E0.02437
G1 X52.056 Y90.210 E0.02436
G1 X52.276 Y89.863 E0.02436
G1 X52.538 Y89.546 E0.02437
G1 X52.838 Y89.265 E0.02436
G1 X53.170 Y89.024 E0.02437
G1 X53.530 Y88.826 E0.02437
G1 X53.912 Y88.675 E0.02436
G1 X54.310 Y88.572 E0.02437
G1 X54.717 Y88.521 E0.02436
G1 X55.116 Y88.521 E0.02367 F1080.000
G1 X55.535 Y88.572 E0.02503
G1 X55.933 Y88.675 E0.02440
G1 X56.315 Y88.826 E0.02436
G1 X56.675 Y89.024 E0.02437
G1 X57.007 Y89.265 E0.02437
G1 X57.306 Y89.546 E0.02436
G1 X57.568 Y89.863 E0.02437
G1 X57.788 Y90.210 E0.02436
G1 X57.963 Y90.581 E0.02436
G1 X58.090 Y90.972 E0.02437
G1 X58.167 Y91.375 E0.02436
G1 X58.193 Y91.785 E0.02436
G1 X58.167 Y92.195 E0.02436
G1 X58.090 Y92.598 E0.02436
G1 X57.963 Y92.989 E0.02437
G1 X57.788 Y93.361 E0.02436
G1 X57.568 Y93.707 E0.02436
G1 X57.306 Y94.024 E0.02437
G1 X57.051 Y94.264 E0.02080
G1 X57.066 Y94.701 F7800.000
G1 F6240
G1 X56.675 Y94.546 E-0.25778
G1 F6240
G1 X56.315 Y94.744 E-0.22512
G1 F6240
G1 X55.933 Y94.896 E-0.22506
G1 F6240
G1 X55.535 Y94.998 E-0.22516
G1 F6240
G1 X55.128 Y95.049 E-0.22506
G1 F6240
G1 X54.988 Y95.049 E-0.07682
G1 E-0.06500 F3600.00000
G1 X121.652 Y91.785 F7800.000
G1 E1.30000 F3600.00000
G1 X121.678 Y91.375 E0.02436 F1080.000
G1 X121.755 Y90.972 E0.02436
G1 X121.882 Y90.581 E0.02437
G1 X122.056 Y90.210 E0.02436
G1 X122.276 Y89.863 E0.02436
G1 X122.538 Y89.546 E0.02437
G1 X122.829 Y89.273 E0.02366
G1 X123.170 Y89.024 E0.02503
G1 X123.530 Y88.826 E0.02440
G1 X123.912 Y88.675 E0.02436
G1 X124.310 Y88.572 E0.02437
G1 X124.705 Y88.522 E0.02366
G1 X125.127 Y88.521 E0.02503 F1080.000
G1 X125.535 Y88.572 E0.02439
G1 X125.933 Y88.675 E0.02437
G1 X126.315 Y88.826 E0.02436
G1 X126.664 Y89.018 E0.02367
G1 X127.007 Y89.265 E0.02503
G1 X127.306 Y89.546 E0.02439
G1 X127.568 Y89.863 E0.02437
G1 X127.788 Y90.210 E0.02436
G1 X127.963 Y90.581 E0.02436
G1 X128.090 Y90.972 E0.02437
G1 X128.167 Y91.375 E0.02436
G1 X128.193 Y91.785 E0.02436
G1 X128.167 Y92.195 E0.02436
G1 X128.090 Y92.598 E0.02436
G1 X127.963 Y92.989 E0.02437
G1 X127.788 Y93.361 E0.02436
G1 X127.568 Y93.707 E0.02436
G1 X127.306 Y94.024 E0.02437
G1 X127.007 Y94.305 E0.02436
G1 X126.675 Y94.546 E0.02437
G1 X126.315 Y94.744 E0.02437
G1 X125.933 Y94.896 E0.02436
G1 X125.535 Y94.998 E0.02437
G1 X125.128 Y95.049 E0.02436
G1 X124.717 Y95.049 E0.02437
G1 X124.310 Y94.998 E0.02436
G1 X123.912 Y94.896 E0.02437
G1 X123.530 Y94.744 E0.02436
G1 X123.170 Y94.546 E0.02437
G1 X122.838 Y94.305 E0.02437
G1 X122.538 Y94.024 E0.02436
G1 X122.276 Y93.707 E0.02437
G1 X122.056 Y93.361 E0.02436
G1 X121.882 Y92.989 E0.02436
G1 X121.755 Y92.598 E0.02437
G1 X121.678 Y92.195 E0.02436
G1 X121.656 Y91.845 E0.02080
G1 X121.310 Y91.578 F7800.000
G1 F6240
G1 X121.678 Y91.375 E-0.25775
G1 F6240
G1 X121.755 Y90.972 E-0.22510
G1 F6240
G1 X121.882 Y90.581 E-0.22513
G1 F6240
G1 X122.056 Y90.210 E-0.22507
G1 F6240
G1 X122.276 Y89.863 E-0.22510
G1 F6240
G1 X122.366 Y89.755 E-0.07684
G1 E-0.06500 F3600.00000
G1 X71.669 Y91.785 F7800.000
G1 E1.30000 F3600.00000
G1 X71.646 Y92.161 E0.02233 F1080.000
G1 X71.575 Y92.530 E0.02233
G1 X71.459 Y92.888 E0.02232
G1 X71.299 Y93.229 E0.02233
G1 X71.097 Y93.547 E0.02233
G1 X70.857 Y93.837 E0.02233
G1 X70.583 Y94.094 E0.02233
G1 X70.278 Y94.316 E0.02233
G1 X69.948 Y94.497 E0.02233
G1 X69.599 Y94.635 E0.02233
G1 X69.234 Y94.729 E0.02233
G1 X68.861 Y94.776 E0.02233
G1 X68.484 Y94.776 E0.02233
G1 X68.111 Y94.729 E0.02233
G1 X67.758 Y94.638 E0.02163
G1 X67.398 Y94.498 E0.02292
G1 X67.066 Y94.316 E0.02242
G1 X66.762 Y94.094 E0.02233
G1 X66.488 Y93.837 E0.02233
G1 X66.248 Y93.547 E0.02233
G1 X66.046 Y93.229 E0.02233
G1 X65.886 Y92.888 E0.02233
G1 X65.769 Y92.530 E0.02232
G1 X65.699 Y92.161 E0.02233
G1 X65.675 Y91.785 E0.02233
G1 X65.699 Y91.409 E0.02233
G1 X65.769 Y91.040 E0.02233
G1 X65.886 Y90.680 E0.02242
G1 X66.052 Y90.331 E0.02292
G1 X66.248 Y90.023 E0.02163
G1 X66.488 Y89.733 E0.02233
G1 X66.762 Y89.476 E0.02233
G1 X67.066 Y89.255 E0.02233
G1 X67.396 Y89.073 E0.02233
G1 X67.746 Y88.935 E0.02233
G1 X68.111 Y88.841 E0.02233
G1 X68.484 Y88.794 E0.02232
G1 X68.849 Y88.794 E0.02164 F1080.000
G1 X69.232 Y88.841 E0.02292
G1 X69.599 Y88.935 E0.02243
G1 X69.975 Y89.084 E0.02400
G1 X70.282 Y89.257 E0.02093
G1 X70.583 Y89.476 E0.02207
G1 X70.857 Y89.733 E0.02233
G1 X71.097 Y90.023 E0.02233
G1 X71.299 Y90.341 E0.02233
G1 X71.459 Y90.682 E0.02233
G1 X71.575 Y91.040 E0.02232
G1 X71.646 Y91.409 E0.02233
G1 X71.666 Y91.725 E0.01877
G1 X71.193 Y91.785 F7800.000
G1 X71.173 Y92.101 E0.01878 F1080.000
G1 X71.114 Y92.412 E0.01878
G1 X71.016 Y92.713 E0.01877
G1 X70.881 Y92.999 E0.01878
G1 X70.712 Y93.267 E0.01878
G1 X70.510 Y93.511 E0.01878
G1 X70.279 Y93.727 E0.01878
G1 X70.023 Y93.913 E0.01878
G1 X69.746 Y94.066 E0.01878
G1 X69.451 Y94.182 E0.01878
G1 X69.145 Y94.261 E0.01878
G1 X68.831 Y94.301 E0.01878
G1 X68.514 Y94.301 E0.01878
G1 X68.200 Y94.261 E0.01878
G1 X67.904 Y94.185 E0.01815
G1 X67.600 Y94.066 E0.01937
G1 X67.322 Y93.913 E0.01881
G1 X67.066 Y93.727 E0.01878
G1 X66.835 Y93.511 E0.01878
G1 X66.633 Y93.267 E0.01878
G1 X66.464 Y92.999 E0.01878
G1 X66.329 Y92.713 E0.01878
G1 X66.231 Y92.412 E0.01878
G1 X66.172 Y92.101 E0.01878
G1 X66.152 Y91.785 E0.01878
G1 X66.172 Y91.469 E0.01878
G1 X66.231 Y91.158 E0.01878
G1 X66.329 Y90.857 E0.01881
G1 X66.469 Y90.562 E0.01937
G1 X66.633 Y90.304 E0.01814
G1 X66.835 Y90.060 E0.01878
G1 X67.066 Y89.843 E0.01878
G1 X67.322 Y89.657 E0.01878
G1 X67.599 Y89.504 E0.01878
G1 X67.893 Y89.388 E0.01878
G1 X68.200 Y89.309 E0.01878
G1 X68.514 Y89.270 E0.01878
G1 X68.820 Y89.270 E0.01815 F1080.000
G1 X69.144 Y89.309 E0.01937
G1 X69.451 Y89.388 E0.01881
G1 X69.769 Y89.514 E0.02028
G1 X70.024 Y89.658 E0.01738
G1 X70.279 Y89.843 E0.01868
G1 X70.510 Y90.060 E0.01878
G1 X70.712 Y90.304 E0.01878
G1 X70.881 Y90.571 E0.01878
G1 X71.016 Y90.857 E0.01878
G1 X71.114 Y91.158 E0.01877
G1 X71.173 Y91.469 E0.01878
G1 X71.189 Y91.725 E0.01522
G1 X71.464 Y91.949 F7800.000
G1 X108.175 Y91.785 F7800.000
G1 X108.199 Y91.409 E0.02233 F1080.000
G1 X108.269 Y91.040 E0.02233
G1 X108.386 Y90.682 E0.02232
G1 X108.546 Y90.341 E0.02233
G1 X108.748 Y90.023 E0.02233
G1 X108.988 Y89.733 E0.02233
G1 X109.262 Y89.476 E0.02233
G1 X109.566 Y89.255 E0.02233
G1 X109.896 Y89.073 E0.02233
G1 X110.246 Y88.935 E0.02233
G1 X110.611 Y88.841 E0.02233
G1 X110.984 Y88.794 E0.02233
G1 X111.361 Y88.794 E0.02233 F1080.000
G1 X111.734 Y88.841 E0.02233
G1 X112.099 Y88.935 E0.02233
G1 X112.448 Y89.073 E0.02233
G1 X112.778 Y89.255 E0.02233
G1 X113.083 Y89.476 E0.02233
G1 X113.357 Y89.733 E0.02233
G1 X113.597 Y90.023 E0.02233
G1 X113.799 Y90.341 E0.02233
G1 X113.959 Y90.682 E0.02233
G1 X114.075 Y91.040 E0.02232
G1 X114.146 Y91.409 E0.02233
G1 X114.169 Y91.785 E0.02233
G1 X114.146 Y92.161 E0.02233
G1 X114.075 Y92.530 E0.02233
G1 X113.959 Y92.888 E0.02232
G1 X113.799 Y93.229 E0.02233
G1 X113.597 Y93.547 E0.02233
G1 X113.357 Y93.837 E0.02233
G1 X113.083 Y94.094 E0.02233
G1 X112.778 Y94.316 E0.02233
G1 X112.448 Y94.497 E0.02233
G1 X112.099 Y94.635 E0.02233
G1 X111.734 Y94.729 E0.02233
G1 X111.361 Y94.776 E0.02233
G1 X110.984 Y94.776 E0.02233
G1 X110.611 Y94.729 E0.02233
G1 X110.246 Y94.635 E0.02233
G1 X109.896 Y94.497 E0.02233
G1 X109.566 Y94.316 E0.02233
G1 X109.261 Y94.093 E0.02242
G1 X108.980 Y93.828 E0.02292
G1 X108.748 Y93.547 E0.02163
G1 X108.546 Y93.229 E0.02233
G1 X108.386 Y92.888 E0.02233
G1 X108.269 Y92.530 E0.02232
G1 X108.199 Y92.161 E0.02233
G1 X108.179 Y91.845 E0.01877
G1 X108.652 Y91.785 F7800.000
G1 X108.672 Y91.469 E0.01878 F1080.000
G1 X108.731 Y91.158 E0.01878
G1 X108.829 Y90.857 E0.01877
G1 X108.964 Y90.571 E0.01878
G1 X109.133 Y90.304 E0.01878
G1 X109.335 Y90.060 E0.01878
G1 X109.566 Y89.843 E0.01878
G1 X109.822 Y89.657 E0.01878
G1 X110.099 Y89.504 E0.01878
G1 X110.393 Y89.388 E0.01878
G1 X110.700 Y89.309 E0.01878
G1 X111.014 Y89.270 E0.01878
G1 X111.331 Y89.270 E0.01878 F1080.000
G1 X111.645 Y89.309 E0.01878
G1 X111.951 Y89.388 E0.01878
G1 X112.246 Y89.504 E0.01878
G1 X112.523 Y89.657 E0.01878
G1 X112.779 Y89.843 E0.01878
G1 X113.010 Y90.060 E0.01878
G1 X113.212 Y90.304 E0.01878
G1 X113.381 Y90.571 E0.01878
G1 X113.516 Y90.857 E0.01878
G1 X113.614 Y91.158 E0.01878
G1 X113.673 Y91.469 E0.01878
G1 X113.693 Y91.785 E0.01878
G1 X113.673 Y92.101 E0.01878
G1 X113.614 Y92.412 E0.01878
G1 X113.516 Y92.713 E0.01877
G1 X113.381 Y92.999 E0.01878
G1 X113.212 Y93.267 E0.01878
G1 X113.010 Y93.511 E0.01878
G1 X112.779 Y93.727 E0.01878
G1 X112.523 Y93.913 E0.01878
G1 X112.246 Y94.066 E0.01878
G1 X111.951 Y94.182 E0.01878
G1 X111.645 Y94.261 E0.01878
G1 X111.331 Y94.301 E0.01878
G1 X111.014 Y94.301 E0.01878
G1 X110.700 Y94.261 E0.01878
G1 X110.393 Y94.182 E0.01878
G1 X110.099 Y94.066 E0.01878
G1 X109.822 Y93.913 E0.01878
G1 X109.565 Y93.727 E0.01881
G1 X109.328 Y93.502 E0.01937
G1 X109.133 Y93.267 E0.01814
G1 X108.964 Y92.999 E0.01878
G1 X108.829 Y92.713 E0.01878
G1 X108.731 Y92.412 E0.01878
G1 X108.672 Y92.101 E0.01878
G1 X108.656 Y91.845 E0.01522
G1 X108.381 Y91.621 F7800.000
G1 F6240
G1 X108.672 Y91.469 E-0.20615
G1 F6240
G1 X108.731 Y91.158 E-0.17350
G1 F6240
G1 X108.829 Y90.857 E-0.17346
G1 F6240
G1 X108.964 Y90.571 E-0.17349
G1 F6240
G1 X109.133 Y90.304 E-0.17349
G1 F6240
G1 X109.335 Y90.060 E-0.17348
G1 F6240
G1 X109.550 Y89.858 E-0.16143
G1 E-0.06500 F3600.00000
G1 X128.177 Y93.718 F7800.000
G1 E1.30000 F3600.00000
G1 X128.177 Y98.539 E0.28600 F1620.000
G1 X51.668 Y98.539 E4.53864
G1 X51.668 Y93.718 E0.28600
G1 X52.191 Y94.350 E0.04866
G1 X52.534 Y94.672 E0.02791
G1 X52.915 Y94.949 E0.02792
G1 X53.327 Y95.176 E0.02791
G1 X53.764 Y95.349 E0.02791
G1 X54.220 Y95.466 E0.02792
G1 X54.687 Y95.525 E0.02791
G1 X55.158 Y95.525 E0.02792
G1 X55.624 Y95.466 E0.02791
G1 X56.080 Y95.349 E0.02792
G1 X56.518 Y95.176 E0.02791
G1 X56.930 Y94.949 E0.02792
G1 X57.311 Y94.672 E0.02792
G1 X57.654 Y94.350 E0.02791
G1 X57.954 Y93.988 E0.02792
G1 X58.206 Y93.590 E0.02792
G1 X58.406 Y93.165 E0.02791
G1 X58.552 Y92.717 E0.02792
G1 X58.640 Y92.255 E0.02792
G1 X58.669 Y91.785 E0.02791
G1 X58.640 Y91.315 E0.02791
G1 X58.552 Y90.853 E0.02792
G1 X58.406 Y90.406 E0.02792
G1 X58.206 Y89.980 E0.02791
G1 X57.954 Y89.583 E0.02792
G1 X57.654 Y89.220 E0.02792
G1 X57.311 Y88.898 E0.02791
G1 X56.930 Y88.621 E0.02792
G1 X56.518 Y88.395 E0.02792
G1 X56.080 Y88.221 E0.02791
G1 X55.623 Y88.104 E0.02800
G1 X55.145 Y88.045 E0.02857
G1 X54.687 Y88.045 E0.02717
G1 X54.220 Y88.104 E0.02791
G1 X53.764 Y88.221 E0.02792
G1 X53.327 Y88.395 E0.02791
G1 X52.915 Y88.621 E0.02791
G1 X52.534 Y88.898 E0.02792
G1 X52.191 Y89.220 E0.02791
G1 X51.668 Y89.852 E0.04866
G1 X51.668 Y85.031 E0.28600
G1 X128.177 Y85.031 E4.53864
G1 X128.177 Y89.852 E0.28600
G1 X127.654 Y89.220 E0.04866
G1 X127.310 Y88.897 E0.02799
G1 X126.919 Y88.615 E0.02858
G1 X126.518 Y88.395 E0.02716
G1 X126.080 Y88.221 E0.02791
G1 X125.624 Y88.104 E0.02792
G1 X125.156 Y88.045 E0.02799
G1 X124.674 Y88.047 E0.02858
G1 X124.220 Y88.104 E0.02716
G1 X123.764 Y88.221 E0.02792
G1 X123.327 Y88.395 E0.02791
G1 X122.913 Y88.622 E0.02800
G1 X122.525 Y88.907 E0.02858
G1 X122.191 Y89.220 E0.02716
G1 X121.891 Y89.583 E0.02792
G1 X121.639 Y89.980 E0.02792
G1 X121.438 Y90.406 E0.02791
G1 X121.293 Y90.853 E0.02792
G1 X121.205 Y91.316 E0.02792
G1 X121.175 Y91.785 E0.02791
G1 X121.205 Y92.255 E0.02791
G1 X121.293 Y92.717 E0.02792
G1 X121.438 Y93.165 E0.02792
G1 X121.639 Y93.590 E0.02791
G1 X121.891 Y93.988 E0.02792
G1 X122.191 Y94.350 E0.02792
G1 X122.534 Y94.672 E0.02791
G1 X122.915 Y94.949 E0.02792
G1 X123.327 Y95.176 E0.02791
G1 X123.764 Y95.349 E0.02791
G1 X124.220 Y95.466 E0.02792
G1 X124.687 Y95.525 E0.02791
G1 X125.158 Y95.525 E0.02792
G1 X125.624 Y95.466 E0.02791
G1 X126.080 Y95.349 E0.02792
G1 X126.518 Y95.176 E0.02791
G1 X126.930 Y94.949 E0.02791
G1 X127.311 Y94.672 E0.02792
G1 X127.654 Y94.350 E0.02791
G1 X128.139 Y93.764 E0.04510
G1 X128.652 Y99.015 F7800.000
G1 X51.192 Y99.015 E4.59507 F1458.000
G1 X51.192 Y84.555 E0.85779
G1 X128.652 Y84.555 E4.59507
G1 X128.652 Y98.955 E0.85424
G1 X128.306 Y98.815 F7800.000
G1 X127.893 Y95.003 F7800.000
G1 X127.612 Y94.721 E0.02372 F1620.000
G1 X127.240 Y95.025 E0.02854
G1 X127.893 Y95.678 E0.05500
G1 X127.893 Y96.353 E0.04016
G1 X126.828 Y95.287 E0.08969
G1 X126.372 Y95.506 E0.03011
G1 X127.893 Y97.028 E0.12808
G1 X127.893 Y97.703 E0.04016
G1 X125.865 Y95.674 E0.17073
G1 X125.297 Y95.781 E0.03440
G1 X127.772 Y98.256 E0.20833
G1 X127.097 Y98.256 E0.04016
G1 X124.649 Y95.808 E0.20604
G1 X123.862 Y95.696 E0.04734
G1 X126.423 Y98.256 E0.21551
G1 X125.748 Y98.256 E0.04016
G1 X122.735 Y95.243 E0.25360
G1 X121.461 Y93.970 F7800.000
G1 X112.806 Y85.314 E0.72852 F1620.000
G1 X112.131 Y85.314 E0.04016
G1 X125.073 Y98.256 E1.08929
G1 X124.398 Y98.256 E0.04016
G1 X111.456 Y85.314 E1.08929
G1 X110.781 Y85.314 E0.04016
G1 X123.723 Y98.256 E1.08929
G1 X123.048 Y98.256 E0.04016
G1 X110.106 Y85.314 E1.08929
G1 X109.432 Y85.314 E0.04016
G1 X122.374 Y98.256 E1.08929
