; generated by Slic3r 1.2.9 on 2019-05-05 at 10:21:40

; external perimeters extrusion width = 0.40mm
; perimeters extrusion width = 0.56mm
; infill extrusion width = 0.56mm
; solid infill extrusion width = 0.56mm
; top infill extrusion width = 0.56mm

M107
M190 S60 ; set bed temperature
M104 S215 ; set temperature
G28 ; home all axes
G92 E0.0 ; reset extruder
M109 S215 ; wait for temperature to be reached
G21 ; set units to millimeters
G90 ; use absolute coordinates
M83 ; use relative distances for extrusion
G1 E-1.30000 F3600.00000
G1 Z0.300 F7800.000
G1 X45.405 Y72.536 F7800.000
G1 E1.30000 F3600.00000
M204 S500
G1 X48.208 Y71.420 E0.17897 F2160.000
G1 X51.000 Y71.073 E0.16691
G1 X129.000 Y71.073 E4.62711
G1 X131.990 Y71.471 E0.17897
G1 X134.772 Y72.638 E0.17897 F2160.000
G1 X137.152 Y74.493 E0.17897
G1 X138.964 Y76.905 E0.17897
G1 X140.080 Y79.708 E0.17897
G1 X140.427 Y82.500 E0.16691
G1 X140.427 Y97.500 E0.88983
G1 X140.029 Y100.490 E0.17897
G1 X138.862 Y103.272 E0.17897
G1 X137.007 Y105.652 E0.17897
G1 X134.595 Y107.464 E0.17897
G1 X131.792 Y108.580 E0.17897
G1 X129.000 Y108.927 E0.16691
G1 X51.000 Y108.927 E4.62711
G1 X48.010 Y108.529 E0.17897
G1 X45.228 Y107.362 E0.17897
G1 X42.848 Y105.507 E0.17897
G1 X41.036 Y103.095 E0.17897
G1 X39.920 Y100.292 E0.17897
G1 X39.573 Y97.500 E0.16691
G1 X39.573 Y82.500 E0.88983
G1 X39.971 Y79.510 E0.17897
G1 X41.138 Y76.728 E0.17897
G1 X42.993 Y74.348 E0.17897
G1 X45.357 Y72.572 E0.17541
G1 X45.699 Y72.945 F7800.000
G1 X45.857 Y72.831 E0.01153 F2160.000
G1 X48.628 Y71.809 E0.17519
G1 X51.000 Y71.549 E0.14158
G1 X129.000 Y71.549 E4.62711
G1 X131.926 Y71.947 E0.17519
G1 X134.640 Y73.113 E0.17519 F2160.000
G1 X136.943 Y74.961 E0.17519
G1 X138.669 Y77.357 E0.17519
G1 X139.691 Y80.128 E0.17519
G1 X139.951 Y82.500 E0.14158
G1 X139.951 Y97.500 E0.88983
G1 X139.553 Y100.426 E0.17519
G1 X138.387 Y103.140 E0.17519
G1 X136.539 Y105.443 E0.17519
G1 X134.143 Y107.169 E0.17519
G1 X131.372 Y108.191 E0.17519
G1 X129.000 Y108.451 E0.14158
G1 X51.000 Y108.451 E4.62711
G1 X48.074 Y108.053 E0.17519
G1 X45.360 Y106.887 E0.17519
G1 X43.057 Y105.039 E0.17519
G1 X41.331 Y102.643 E0.17519
G1 X40.309 Y99.872 E0.17519
G1 X40.049 Y97.500 E0.14158
G1 X40.049 Y82.500 E0.88983
G1 X40.447 Y79.574 E0.17519
G1 X41.613 Y76.860 E0.17519
G1 X43.461 Y74.557 E0.17519
G1 X45.651 Y72.980 E0.16010
G1 X45.983 Y73.357 F7800.000
G1 X46.307 Y73.134 E0.02331 F2160.000
G1 X49.043 Y72.209 E0.17132
G1 X51.000 Y72.024 E0.11663
G1 X129.000 Y72.024 E4.62711
G1 X131.860 Y72.422 E0.17132
G1 X134.503 Y73.586 E0.17132 F2160.000
G1 X136.728 Y75.428 E0.17132
G1 X138.366 Y77.807 E0.17132
G1 X139.291 Y80.543 E0.17132
G1 X139.476 Y82.500 E0.11663
G1 X139.476 Y97.500 E0.88983
G1 X139.078 Y100.360 E0.17132
G1 X137.914 Y103.003 E0.17132
G1 X136.072 Y105.228 E0.17132
G1 X133.693 Y106.866 E0.17132
G1 X130.957 Y107.791 E0.17132
G1 X129.000 Y107.976 E0.11663
G1 X51.000 Y107.976 E4.62711
G1 X48.140 Y107.578 E0.17132
G1 X45.497 Y106.414 E0.17132
G1 X43.272 Y104.572 E0.17132
G1 X41.634 Y102.193 E0.17132
G1 X40.709 Y99.457 E0.17132
G1 X40.524 Y97.500 E0.11663
G1 X40.524 Y82.500 E0.88983
G1 X40.922 Y79.640 E0.17132
G1 X42.086 Y76.997 E0.17132
G1 X43.928 Y74.772 E0.17132
G1 X45.934 Y73.391 E0.14445
G1 F6240
G1 X46.307 Y73.134 E-0.24826
G1 F6240
G1 X48.012 Y72.557 E-0.98674
G1 E-0.06500 F3600.00000
G1 X56.752 Y92.761 F7800.000
G1 E1.30000 F3600.00000
G1 X56.392 Y92.959 E0.02437 F1080.000
G1 X56.011 Y93.110 E0.02436
G1 X55.613 Y93.213 E0.02437
G1 X55.205 Y93.264 E0.02436
G1 X54.795 Y93.264 E0.02437
G1 X54.387 Y93.213 E0.02436
G1 X53.989 Y93.110 E0.02437
G1 X53.608 Y92.959 E0.02436
G1 X53.248 Y92.761 E0.02437
G1 X52.915 Y92.520 E0.02437
G1 X52.616 Y92.239 E0.02436
G1 X52.354 Y91.922 E0.02437
G1 X52.134 Y91.576 E0.02436
G1 X51.959 Y91.204 E0.02436
G1 X51.832 Y90.813 E0.02437
G1 X51.755 Y90.410 E0.02436
G1 X51.729 Y90.000 E0.02436
G1 X51.755 Y89.590 E0.02436
G1 X51.832 Y89.187 E0.02436
G1 X51.959 Y88.796 E0.02437
G1 X52.134 Y88.424 E0.02436
G1 X52.354 Y88.078 E0.02436
G1 X52.616 Y87.761 E0.02437
G1 X52.915 Y87.480 E0.02436
G1 X53.248 Y87.239 E0.02437
G1 X53.608 Y87.041 E0.02437
G1 X53.989 Y86.890 E0.02436
G1 X54.387 Y86.787 E0.02437
G1 X54.795 Y86.736 E0.02436
G1 X55.194 Y86.736 E0.02367 F1080.000
G1 X55.612 Y86.787 E0.02503
G1 X56.011 Y86.890 E0.02440
G1 X56.392 Y87.041 E0.02436
G1 X56.752 Y87.239 E0.02437
G1 X57.085 Y87.480 E0.02437
G1 X57.384 Y87.761 E0.02436
G1 X57.646 Y88.078 E0.02437
G1 X57.866 Y88.424 E0.02436
G1 X58.041 Y88.796 E0.02436
G1 X58.168 Y89.187 E0.02437
G1 X58.245 Y89.590 E0.02436
G1 X58.271 Y90.000 E0.02436
G1 X58.245 Y90.410 E0.02436
G1 X58.168 Y90.813 E0.02436
G1 X58.041 Y91.204 E0.02437
G1 X57.866 Y91.576 E0.02436
G1 X57.646 Y91.922 E0.02436
G1 X57.384 Y92.239 E0.02437
G1 X57.085 Y92.520 E0.02436
G1 X56.801 Y92.726 E0.02081
G1 X56.761 Y93.161 F7800.000
G1 F6240
G1 X56.392 Y92.959 E-0.25778
G1 F6240
G1 X56.011 Y93.110 E-0.22506
G1 F6240
G1 X55.613 Y93.213 E-0.22516
G1 F6240
G1 X55.205 Y93.264 E-0.22506
G1 F6240
G1 X54.795 Y93.264 E-0.22514
G1 F6240
G1 X54.656 Y93.247 E-0.07680
G1 E-0.06500 F3600.00000
G1 X121.729 Y90.000 F7800.000
G1 E1.30000 F3600.00000
G1 X121.755 Y89.590 E0.02436 F1080.000
G1 X121.832 Y89.187 E0.02436
G1 X121.959 Y88.796 E0.02437
G1 X122.134 Y88.424 E0.02436
G1 X122.354 Y88.078 E0.02436
G1 X122.616 Y87.761 E0.02437
G1 X122.907 Y87.488 E0.02366
G1 X123.247 Y87.239 E0.02503
G1 X123.608 Y87.041 E0.02440
G1 X123.989 Y86.890 E0.02436
G1 X124.387 Y86.787 E0.02437
G1 X124.783 Y86.737 E0.02366
G1 X125.205 Y86.736 E0.02503 F1080.000
G1 X125.613 Y86.787 E0.02439
G1 X126.011 Y86.890 E0.02437
G1 X126.392 Y87.041 E0.02436
G1 X126.742 Y87.233 E0.02367
G1 X127.084 Y87.480 E0.02503
G1 X127.384 Y87.761 E0.02439
G1 X127.646 Y88.078 E0.02437
G1 X127.866 Y88.424 E0.02436
G1 X128.041 Y88.796 E0.02436
G1 X128.168 Y89.187 E0.02437
G1 X128.245 Y89.590 E0.02436
G1 X128.271 Y90.000 E0.02436
G1 X128.245 Y90.410 E0.02436
G1 X128.168 Y90.813 E0.02436
G1 X128.041 Y91.204 E0.02437
G1 X127.866 Y91.576 E0.02436
G1 X127.646 Y91.922 E0.02436
G1 X127.384 Y92.239 E0.02437
G1 X127.085 Y92.520 E0.02436
G1 X126.752 Y92.761 E0.02437
G1 X126.392 Y92.959 E0.02437
G1 X126.011 Y93.110 E0.02436
G1 X125.613 Y93.213 E0.02437
G1 X125.205 Y93.264 E0.02436
G1 X124.795 Y93.264 E0.02437
G1 X124.387 Y93.213 E0.02436
G1 X123.989 Y93.110 E0.02437
G1 X123.608 Y92.959 E0.02436
G1 X123.248 Y92.761 E0.02437
G1 X122.915 Y92.520 E0.02437
G1 X122.616 Y92.239 E0.02436
G1 X122.354 Y91.922 E0.02437
G1 X122.134 Y91.576 E0.02436
G1 X121.959 Y91.204 E0.02436
G1 X121.832 Y90.813 E0.02437
G1 X121.755 Y90.410 E0.02436
G1 X121.733 Y90.060 E0.02080
G1 X121.387 Y89.793 F7800.000
G1 F6240
G1 X121.755 Y89.590 E-0.25775
G1 F6240
G1 X121.832 Y89.187 E-0.22510
G1 F6240
G1 X121.959 Y88.796 E-0.22513
G1 F6240
G1 X122.134 Y88.424 E-0.22507
G1 F6240
G1 X122.354 Y88.078 E-0.22510
G1 F6240
G1 X122.443 Y87.970 E-0.07684
G1 E-0.06500 F3600.00000
G1 X71.747 Y90.000 F7800.000
G1 E1.30000 F3600.00000
G1 X71.724 Y90.376 E0.02233 F1080.000
G1 X71.653 Y90.745 E0.02233
G1 X71.537 Y91.103 E0.02232
G1 X71.376 Y91.444 E0.02233
G1 X71.175 Y91.762 E0.02233
G1 X70.935 Y92.052 E0.02233
G1 X70.660 Y92.309 E0.02233
G1 X70.356 Y92.531 E0.02233
G1 X70.026 Y92.712 E0.02233
G1 X69.676 Y92.850 E0.02233
G1 X69.312 Y92.944 E0.02233
G1 X68.938 Y92.991 E0.02233
G1 X68.562 Y92.991 E0.02233
G1 X68.188 Y92.944 E0.02233
G1 X67.835 Y92.853 E0.02163
G1 X67.475 Y92.713 E0.02292
G1 X67.144 Y92.531 E0.02242
G1 X66.840 Y92.309 E0.02233
G1 X66.565 Y92.052 E0.02233
G1 X66.325 Y91.762 E0.02233
G1 X66.124 Y91.444 E0.02233
G1 X65.963 Y91.103 E0.02233
G1 X65.847 Y90.745 E0.02232
G1 X65.776 Y90.376 E0.02233
G1 X65.753 Y90.000 E0.02233
G1 X65.776 Y89.624 E0.02233
G1 X65.847 Y89.255 E0.02233
G1 X65.964 Y88.895 E0.02242
G1 X66.130 Y88.546 E0.02292
G1 X66.325 Y88.238 E0.02163
G1 X66.565 Y87.948 E0.02233
G1 X66.840 Y87.691 E0.02233
G1 X67.144 Y87.469 E0.02233
G1 X67.474 Y87.288 E0.02233
G1 X67.824 Y87.150 E0.02233
G1 X68.188 Y87.056 E0.02233
G1 X68.562 Y87.009 E0.02232
G1 X68.926 Y87.009 E0.02164 F1080.000
G1 X69.310 Y87.056 E0.02292
G1 X69.676 Y87.150 E0.02243
G1 X70.052 Y87.299 E0.02400
G1 X70.359 Y87.472 E0.02093
G1 X70.660 Y87.691 E0.02207
G1 X70.935 Y87.948 E0.02233
G1 X71.175 Y88.238 E0.02233
G1 X71.376 Y88.556 E0.02233
G1 X71.537 Y88.897 E0.02233
G1 X71.653 Y89.255 E0.02232
G1 X71.724 Y89.624 E0.02233
G1 X71.743 Y89.940 E0.01877
G1 X71.271 Y90.000 F7800.000
G1 X71.251 Y90.316 E0.01878 F1080.000
G1 X71.191 Y90.627 E0.01878
G1 X71.094 Y90.928 E0.01877
G1 X70.959 Y91.214 E0.01878
G1 X70.789 Y91.482 E0.01878
G1 X70.587 Y91.725 E0.01878
G1 X70.357 Y91.942 E0.01878
G1 X70.101 Y92.128 E0.01878
G1 X69.823 Y92.281 E0.01878
G1 X69.529 Y92.397 E0.01878
G1 X69.222 Y92.476 E0.01878
G1 X68.908 Y92.516 E0.01878
G1 X68.592 Y92.516 E0.01878
G1 X68.278 Y92.476 E0.01878
G1 X67.981 Y92.400 E0.01815
G1 X67.677 Y92.281 E0.01937
G1 X67.399 Y92.128 E0.01881
G1 X67.143 Y91.942 E0.01878
G1 X66.913 Y91.725 E0.01878
G1 X66.711 Y91.482 E0.01878
G1 X66.541 Y91.214 E0.01878
G1 X66.406 Y90.928 E0.01878
G1 X66.309 Y90.627 E0.01878
G1 X66.249 Y90.316 E0.01878
G1 X66.229 Y90.000 E0.01878
G1 X66.249 Y89.684 E0.01878
G1 X66.309 Y89.373 E0.01878
G1 X66.407 Y89.072 E0.01881
G1 X66.547 Y88.777 E0.01937
G1 X66.711 Y88.518 E0.01814
G1 X66.913 Y88.275 E0.01878
G1 X67.143 Y88.058 E0.01878
G1 X67.399 Y87.872 E0.01878
G1 X67.677 Y87.719 E0.01878
G1 X67.971 Y87.603 E0.01878
G1 X68.278 Y87.524 E0.01878
G1 X68.592 Y87.484 E0.01878
G1 X68.898 Y87.484 E0.01815 F1080.000
G1 X69.222 Y87.524 E0.01937
G1 X69.529 Y87.603 E0.01881
G1 X69.847 Y87.729 E0.02028
G1 X70.102 Y87.873 E0.01738
G1 X70.357 Y88.058 E0.01868
G1 X70.587 Y88.275 E0.01878
G1 X70.789 Y88.518 E0.01878
G1 X70.959 Y88.786 E0.01878
G1 X71.094 Y89.072 E0.01878
G1 X71.191 Y89.373 E0.01877
G1 X71.251 Y89.684 E0.01878
G1 X71.267 Y89.940 E0.01522
G1 X71.541 Y90.164 F7800.000
G1 X108.253 Y90.000 F7800.000
G1 X108.276 Y89.624 E0.02233 F1080.000
G1 X108.347 Y89.255 E0.02233
G1 X108.463 Y88.897 E0.02232
G1 X108.624 Y88.556 E0.02233
G1 X108.825 Y88.238 E0.02233
G1 X109.065 Y87.948 E0.02233
G1 X109.340 Y87.691 E0.02233
G1 X109.644 Y87.469 E0.02233
G1 X109.974 Y87.288 E0.02233
G1 X110.324 Y87.150 E0.02233
G1 X110.688 Y87.056 E0.02233
G1 X111.062 Y87.009 E0.02233
G1 X111.438 Y87.009 E0.02233 F1080.000
G1 X111.812 Y87.056 E0.02233
G1 X112.176 Y87.150 E0.02233
G1 X112.526 Y87.288 E0.02233
G1 X112.856 Y87.469 E0.02233
G1 X113.160 Y87.691 E0.02233
G1 X113.435 Y87.948 E0.02233
G1 X113.675 Y88.238 E0.02233
G1 X113.876 Y88.556 E0.02233
G1 X114.037 Y88.897 E0.02233
G1 X114.153 Y89.255 E0.02232
G1 X114.224 Y89.624 E0.02233
G1 X114.247 Y90.000 E0.02233
G1 X114.224 Y90.376 E0.02233
G1 X114.153 Y90.745 E0.02233
G1 X114.037 Y91.103 E0.02232
G1 X113.876 Y91.444 E0.02233
G1 X113.675 Y91.762 E0.02233
G1 X113.435 Y92.052 E0.02233
G1 X113.160 Y92.309 E0.02233
G1 X112.856 Y92.531 E0.02233
G1 X112.526 Y92.712 E0.02233
G1 X112.176 Y92.850 E0.02233
G1 X111.812 Y92.944 E0.02233
G1 X111.438 Y92.991 E0.02233
G1 X111.062 Y92.991 E0.02233
G1 X110.688 Y92.944 E0.02233
G1 X110.324 Y92.850 E0.02233
G1 X109.974 Y92.712 E0.02233
G1 X109.644 Y92.531 E0.02233
G1 X109.338 Y92.308 E0.02242
G1 X109.058 Y92.043 E0.02292
G1 X108.825 Y91.762 E0.02163
G1 X108.624 Y91.444 E0.02233
G1 X108.463 Y91.103 E0.02233
G1 X108.347 Y90.745 E0.02232
G1 X108.276 Y90.376 E0.02233
G1 X108.257 Y90.060 E0.01877
G1 X108.729 Y90.000 F7800.000
G1 X108.749 Y89.684 E0.01878 F1080.000
G1 X108.809 Y89.373 E0.01878
G1 X108.906 Y89.072 E0.01877
G1 X109.041 Y88.786 E0.01878
G1 X109.211 Y88.518 E0.01878
G1 X109.413 Y88.275 E0.01878
G1 X109.643 Y88.058 E0.01878
G1 X109.899 Y87.872 E0.01878
G1 X110.177 Y87.719 E0.01878
G1 X110.471 Y87.603 E0.01878
G1 X110.778 Y87.524 E0.01878
G1 X111.092 Y87.484 E0.01878
G1 X111.408 Y87.484 E0.01878 F1080.000
G1 X111.722 Y87.524 E0.01878
G1 X112.029 Y87.603 E0.01878
G1 X112.323 Y87.719 E0.01878
G1 X112.601 Y87.872 E0.01878
G1 X112.857 Y88.058 E0.01878
G1 X113.087 Y88.275 E0.01878
G1 X113.289 Y88.518 E0.01878
G1 X113.459 Y88.786 E0.01878
G1 X113.594 Y89.072 E0.01878
G1 X113.691 Y89.373 E0.01878
G1 X113.751 Y89.684 E0.01878
G1 X113.771 Y90.000 E0.01878
G1 X113.751 Y90.316 E0.01878
G1 X113.691 Y90.627 E0.01878
G1 X113.594 Y90.928 E0.01877
G1 X113.459 Y91.214 E0.01878
G1 X113.289 Y91.482 E0.01878
G1 X113.087 Y91.725 E0.01878
G1 X112.857 Y91.942 E0.01878
G1 X112.601 Y92.128 E0.01878
G1 X112.323 Y92.281 E0.01878
G1 X112.029 Y92.397 E0.01878
G1 X111.722 Y92.476 E0.01878
G1 X111.408 Y92.516 E0.01878
G1 X111.092 Y92.516 E0.01878
G1 X110.778 Y92.476 E0.01878
G1 X110.471 Y92.397 E0.01878
G1 X110.177 Y92.281 E0.01878
G1 X109.899 Y92.128 E0.01878
G1 X109.643 Y91.942 E0.01881
G1 X109.406 Y91.717 E0.01937
G1 X109.211 Y91.482 E0.01814
G1 X109.041 Y91.214 E0.01878
G1 X108.906 Y90.928 E0.01878
G1 X108.809 Y90.627 E0.01878
G1 X108.749 Y90.316 E0.01878
G1 X108.733 Y90.060 E0.01522
G1 X108.459 Y89.836 F7800.000
G1 F6240
G1 X108.749 Y89.684 E-0.20615
G1 F6240
G1 X108.809 Y89.373 E-0.17350
G1 F6240
G1 X108.906 Y89.072 E-0.17346
G1 F6240
G1 X109.041 Y88.786 E-0.17349
G1 F6240
G1 X109.211 Y88.518 E-0.17349
G1 F6240
G1 X109.413 Y88.275 E-0.17348
G1 F6240
G1 X109.627 Y88.073 E-0.16143
G1 E-0.06500 F3600.00000
G1 X128.254 Y91.933 F7800.000
G1 E1.30000 F3600.00000
G1 X128.254 Y96.754 E0.28600 F1620.000
G1 X51.746 Y96.754 E4.53864
G1 X51.746 Y91.933 E0.28600
G1 X52.269 Y92.565 E0.04866
G1 X52.611 Y92.887 E0.02791
G1 X52.992 Y93.164 E0.02792
G1 X53.405 Y93.390 E0.02791
G1 X53.842 Y93.564 E0.02791
G1 X54.298 Y93.681 E0.02792
G1 X54.765 Y93.740 E0.02791
G1 X55.235 Y93.740 E0.02792
G1 X55.702 Y93.681 E0.02791
G1 X56.158 Y93.564 E0.02792
G1 X56.595 Y93.390 E0.02791
G1 X57.008 Y93.164 E0.02792
G1 X57.389 Y92.887 E0.02792
G1 X57.731 Y92.565 E0.02791
G1 X58.032 Y92.202 E0.02792
G1 X58.284 Y91.805 E0.02792
G1 X58.484 Y91.379 E0.02791
G1 X58.629 Y90.932 E0.02792
G1 X58.717 Y90.470 E0.02792
G1 X58.747 Y90.000 E0.02791
G1 X58.717 Y89.530 E0.02791
G1 X58.629 Y89.068 E0.02792
G1 X58.484 Y88.621 E0.02792
G1 X58.284 Y88.195 E0.02791
G1 X58.032 Y87.798 E0.02792
G1 X57.731 Y87.435 E0.02792
G1 X57.389 Y87.113 E0.02791
G1 X57.008 Y86.836 E0.02792
G1 X56.595 Y86.610 E0.02792
G1 X56.158 Y86.436 E0.02791
G1 X55.701 Y86.319 E0.02800
G1 X55.223 Y86.260 E0.02857
G1 X54.765 Y86.260 E0.02717
G1 X54.298 Y86.319 E0.02791
G1 X53.842 Y86.436 E0.02792
G1 X53.405 Y86.610 E0.02791
G1 X52.992 Y86.836 E0.02791
G1 X52.611 Y87.113 E0.02792
G1 X52.269 Y87.435 E0.02791
G1 X51.746 Y88.067 E0.04866
G1 X51.746 Y83.246 E0.28600
G1 X128.254 Y83.246 E4.53864
G1 X128.254 Y88.067 E0.28600
G1 X127.731 Y87.435 E0.04866
G1 X127.388 Y87.112 E0.02799
G1 X126.997 Y86.830 E0.02858
G1 X126.595 Y86.610 E0.02716
G1 X126.158 Y86.436 E0.02791
G1 X125.702 Y86.319 E0.02792
G1 X125.234 Y86.260 E0.02799
G1 X124.752 Y86.262 E0.02858
G1 X124.298 Y86.319 E0.02716
G1 X123.842 Y86.436 E0.02792
G1 X123.405 Y86.610 E0.02791
G1 X122.991 Y86.837 E0.02800
G1 X122.602 Y87.121 E0.02858
G1 X122.269 Y87.435 E0.02716
G1 X121.968 Y87.798 E0.02792
G1 X121.716 Y88.195 E0.02792
G1 X121.516 Y88.621 E0.02791
G1 X121.371 Y89.068 E0.02792
G1 X121.282 Y89.530 E0.02792
G1 X121.253 Y90.000 E0.02791
G1 X121.282 Y90.470 E0.02791
G1 X121.371 Y90.932 E0.02792
G1 X121.516 Y91.379 E0.02792
G1 X121.716 Y91.805 E0.02791
G1 X121.968 Y92.202 E0.02792
G1 X122.269 Y92.565 E0.02792
G1 X122.611 Y92.887 E0.02791
G1 X122.992 Y93.164 E0.02792
G1 X123.405 Y93.390 E0.02791
G1 X123.842 Y93.564 E0.02791
G1 X124.298 Y93.681 E0.02792
G1 X124.765 Y93.740 E0.02791
G1 X125.235 Y93.740 E0.02792
G1 X125.702 Y93.681 E0.02791
G1 X126.158 Y93.564 E0.02792
G1 X126.595 Y93.390 E0.02791
G1 X127.008 Y93.164 E0.02791
G1 X127.389 Y92.887 E0.02792
G1 X127.731 Y92.565 E0.02791
G1 X128.216 Y91.979 E0.04510
G1 X128.730 Y97.230 F7800.000
G1 X51.270 Y97.230 E4.59507 F1458.000
G1 X51.270 Y82.770 E0.85779
G1 X128.730 Y82.770 E4.59507
G1 X128.730 Y97.170 E0.85424
G1 X128.384 Y97.030 F7800.000
G1 X127.971 Y93.218 F7800.000
G1 X127.689 Y92.936 E0.02372 F1620.000
G1 X127.318 Y93.240 E0.02854
G1 X127.971 Y93.893 E0.05500
