; generated by Slic3r 1.3.0 on 2020-12-17 at 12:08:07

; external perimeters extrusion width = 0.44mm (2.86mm^3/s)
; perimeters extrusion width = 0.56mm (4.14mm^3/s)
; infill extrusion width = 0.50mm (3.66mm^3/s)
; solid infill extrusion width = 0.56mm (3.10mm^3/s)
; top infill extrusion width = 0.56mm (3.10mm^3/s)

M107
;D3D:START:START
T0
M104 S215 T0

G21
G90
M107
T0
G28
G29
M109 T0 S215 T0
G0 F3000
M107
T0
G92 E0
G0 X0 Y149 Z0.1 F3600
G1 Y49 E6.5 F1200
G0 Z1
G92 E0
; Filament gcode

G21 ; set units to millimeters
G90 ; use absolute coordinates
M82 ; use absolute distances for extrusion
G92 E0
G1 Z0.300 F7800.000
G1 E-2.00000 F2400.00000
G92 E0
G1 X78.835 Y54.585 F7800.000
G1 E2.00000 F2400.00000
G1 F1800
G1 X106.915 Y54.585 E2.86516
G1 X106.915 Y95.415 E4.12315
G1 X78.835 Y95.415 E4.98831
G1 X78.835 Y54.645 E6.24445
G1 E4.24445 F2400.00000
G92 E0
G1 X75.998 Y54.585 F7800.000
G1 E2.00000 F2400.00000
G1 F1800
G1 X77.641 Y57.430 E2.10122
G1 X75.820 Y60.583 E2.21338
G1 X72.180 Y60.583 E2.32555
G1 X70.359 Y57.430 E2.43772
G1 X72.002 Y54.585 E2.53893
G1 X75.938 Y54.585 E2.66020
G1 E0.66020 F2400.00000
G92 E0
G1 X74.199 Y71.841 F7800.000
G1 E2.00000 F2400.00000
G1 F1800
G1 X74.593 Y71.891 E2.01225
G1 X74.978 Y71.990 E2.02449
G1 X75.348 Y72.136 E2.03674
G1 X75.696 Y72.327 E2.04899
G1 X76.018 Y72.561 E2.06124
G1 X76.307 Y72.833 E2.07348
G1 X76.561 Y73.139 E2.08573
G1 X76.774 Y73.475 E2.09798
G1 X76.943 Y73.835 E2.11022
G1 X77.066 Y74.213 E2.12247
G1 X77.140 Y74.603 E2.13472
G1 X77.165 Y75.000 E2.14697
G1 X77.140 Y75.397 E2.15921
G1 X77.066 Y75.787 E2.17146
G1 X76.943 Y76.166 E2.18372
G1 X76.768 Y76.535 E2.19631
G1 X76.561 Y76.861 E2.20820
G1 X76.307 Y77.167 E2.22045
G1 X76.018 Y77.439 E2.23269
G1 X75.696 Y77.673 E2.24494
G1 X75.348 Y77.864 E2.25719
G1 X74.978 Y78.010 E2.26944
G1 X74.593 Y78.109 E2.28169
G1 X74.199 Y78.159 E2.29393
G1 X73.801 Y78.159 E2.30618
G1 X73.407 Y78.109 E2.31842
G1 X73.022 Y78.010 E2.33067
G1 X72.652 Y77.864 E2.34292
G1 X72.304 Y77.673 E2.35517
G1 X71.982 Y77.439 E2.36742
G1 X71.693 Y77.167 E2.37966
G1 X71.439 Y76.861 E2.39191
G1 X71.226 Y76.525 E2.40416
G1 X71.057 Y76.165 E2.41640
G1 X70.934 Y75.787 E2.42865
G1 X70.860 Y75.397 E2.44090
G1 X70.835 Y75.000 E2.45315
G1 X70.860 Y74.603 E2.46539
G1 X70.934 Y74.213 E2.47764
G1 X71.057 Y73.835 E2.48989
G1 X71.226 Y73.475 E2.50214
G1 X71.439 Y73.139 E2.51438
G1 X71.693 Y72.833 E2.52663
G1 X71.982 Y72.561 E2.53888
G1 X72.304 Y72.327 E2.55112
G1 X72.652 Y72.136 E2.56337
G1 X73.022 Y71.990 E2.57562
G1 X73.407 Y71.891 E2.58787
G1 X73.801 Y71.841 E2.60011
G1 X74.139 Y71.841 E2.61051
G1 E0.61051 F2400.00000
G92 E0
G1 X75.820 Y84.757 F7800.000
G1 E2.00000 F2400.00000
G1 F1800
G1 X77.641 Y87.910 E2.11217
G1 X75.820 Y91.063 E2.22433
G1 X72.180 Y91.063 E2.33650
G1 X70.359 Y87.910 E2.44867
G1 X72.180 Y84.757 E2.56083
G1 X75.760 Y84.757 E2.67115
G1 E0.67115 F2400.00000
G92 E0
G1 X69.165 Y95.415 F7800.000
G1 E2.00000 F2400.00000
G1 F1800
G1 X43.085 Y95.415 E2.80354
G1 X43.085 Y54.585 E4.06153
G1 X69.165 Y54.585 E4.86506
G1 X69.165 Y95.355 E6.12121
G1 E4.12121 F2400.00000
G92 E0
G1 X41.015 Y97.485 F7800.000
G1 E2.00000 F2400.00000
G1 F1800
G1 X41.015 Y52.515 E3.38555
G1 X108.985 Y52.515 E5.47973
G1 X108.985 Y97.485 E6.86528
G1 X41.075 Y97.485 E8.95762
G1 E6.95762 F2400.00000
G92 E0
G1 X69.327 Y95.552 F7800.000
G1 E2.00000 F2400.00000
G1 F1800
G1 X73.654 Y91.225 E2.18907
G1 X73.278 Y91.225 E2.20071
G1 X69.327 Y95.175 E2.37331
G1 X69.327 Y94.799 E2.38495
G1 X72.901 Y91.225 E2.54110
G1 X72.524 Y91.225 E2.55274
G1 X69.327 Y94.422 E2.69243
G1 X69.327 Y94.045 E2.70407
G1 X72.148 Y91.225 E2.82730
G1 X72.130 Y91.225 E2.82785
G1 X71.998 Y90.998 E2.83596
G1 X69.327 Y93.669 E2.95267
G1 X69.327 Y93.292 E2.96431
G1 X71.860 Y90.759 E3.07500
G1 X71.723 Y90.520 E3.08352
G1 X69.327 Y92.915 E3.18818
G1 X69.327 Y92.539 E3.19982
G1 X71.585 Y90.281 E3.29845
G1 X71.447 Y90.042 E3.30697
G1 X69.327 Y92.162 E3.39959
G1 X69.327 Y91.785 E3.41122
G1 X71.309 Y89.804 E3.49781
G1 X71.171 Y89.565 E3.50633
G1 X69.327 Y91.409 E3.58690
G1 X69.327 Y91.032 E3.59853
G1 X71.033 Y89.326 E3.67307
G1 X70.895 Y89.087 E3.68159
G1 X69.327 Y90.655 E3.75011
G1 X69.327 Y90.278 E3.76175
G1 X70.757 Y88.848 E3.82424
G1 X70.620 Y88.610 E3.83276
G1 X69.327 Y89.902 E3.88922
G1 X69.327 Y89.525 E3.90086
G1 X70.482 Y88.371 E3.95130
G1 X70.344 Y88.132 E3.95982
G1 X69.327 Y89.148 E4.00424
G1 X69.327 Y88.772 E4.01588
G1 X70.206 Y87.893 E4.05427
G1 X70.156 Y87.807 E4.05735
G1 X70.485 Y87.238 E4.07765
G1 X69.327 Y88.395 E4.12821
G1 X69.327 Y88.018 E4.13985
G1 X70.999 Y86.347 E4.21289
G1 X71.514 Y85.455 E4.24469
G1 X69.327 Y87.642 E4.34022
G1 X69.327 Y87.265 E4.35186
G1 X72.028 Y84.564 E4.46987
G1 E2.46987 F2400.00000
G92 E0
G1 X76.092 Y91.047 F7800.000
G1 E2.00000 F2400.00000
G1 F1800
G1 X78.673 Y88.467 E2.11275
G1 X78.673 Y88.090 E2.12439
G1 X76.607 Y90.156 E2.21466
G1 X77.121 Y89.265 E2.24646
G1 X78.673 Y87.714 E2.31425
G1 X78.673 Y87.337 E2.32589
G1 X77.636 Y88.374 E2.37119
G1 X77.844 Y88.013 E2.38405
G1 X77.762 Y87.871 E2.38912
G1 X78.673 Y86.960 E2.42893
G1 X78.673 Y86.583 E2.44056
G1 X77.624 Y87.632 E2.48639
G1 X77.486 Y87.393 E2.49491
G1 X78.673 Y86.207 E2.54676
G1 X78.673 Y85.830 E2.55840
G1 X77.348 Y87.155 E2.61627
G1 X77.210 Y86.916 E2.62479
G1 X78.673 Y85.453 E2.68869
G1 X78.673 Y85.077 E2.70033
G1 X77.072 Y86.677 E2.77026
G1 X76.935 Y86.438 E2.77878
G1 X78.673 Y84.700 E2.85472
G1 X78.673 Y84.323 E2.86636
G1 X76.797 Y86.199 E2.94834
G1 X76.659 Y85.961 E2.95686
G1 X78.673 Y83.947 E3.04485
G1 X78.673 Y83.570 E3.05649
G1 X76.521 Y85.722 E3.15051
G1 X76.383 Y85.483 E3.15903
G1 X78.673 Y83.193 E3.25908
G1 X78.673 Y82.817 E3.27072
G1 X76.245 Y85.244 E3.37679
G1 X76.107 Y85.005 E3.38531
G1 X78.673 Y82.440 E3.49740
G1 X78.673 Y82.063 E3.50904
G1 X75.969 Y84.766 E3.62716
G1 X75.870 Y84.595 E3.63328
G1 X75.764 Y84.595 E3.63656
G1 X78.673 Y81.686 E3.76364
G1 X78.673 Y81.310 E3.77528
G1 X75.388 Y84.595 E3.91882
G1 X75.011 Y84.595 E3.93046
G1 X78.673 Y80.933 E4.09046
G1 X78.673 Y80.556 E4.10209
G1 X74.634 Y84.595 E4.27855
G1 X74.258 Y84.595 E4.29019
G1 X78.673 Y80.180 E4.48311
G1 X78.673 Y79.803 E4.49475
G1 X73.881 Y84.595 E4.70412
G1 X73.504 Y84.595 E4.71576
G1 X78.673 Y79.426 E4.94160
G1 X78.673 Y79.050 E4.95323
G1 X73.127 Y84.595 E5.19553
G1 X72.751 Y84.595 E5.20717
G1 X78.673 Y78.673 E5.46592
G1 X78.673 Y78.296 E5.47756
G1 X72.374 Y84.595 E5.75277
G1 X71.997 Y84.595 E5.76441
G1 X78.673 Y77.920 E6.05608
G1 X78.673 Y77.543 E6.06772
G1 X69.327 Y86.888 E6.47606
G1 X69.327 Y86.512 E6.48770
G1 X78.673 Y77.166 E6.89604
G1 X78.673 Y76.790 E6.90768
G1 X69.327 Y86.135 E7.31601
G1 X69.327 Y85.758 E7.32765
G1 X78.673 Y76.413 E7.73599
G1 X78.673 Y76.036 E7.74763
G1 X69.327 Y85.382 E8.15597
G1 X69.327 Y85.005 E8.16761
G1 X78.673 Y75.659 E8.57594
G1 X78.673 Y75.283 E8.58758
G1 X69.327 Y84.628 E8.99592
G1 X69.327 Y84.251 E9.00756
G1 X75.593 Y77.986 E9.28133
G1 X75.164 Y78.160 E9.29564
G1 X75.000 Y78.202 E9.30087
G1 X69.327 Y83.875 E9.54872
G1 X69.327 Y83.498 E9.56036
G1 X74.531 Y78.295 E9.78772
G1 X74.319 Y78.321 E9.79432
G1 X74.127 Y78.321 E9.80024
G1 X69.327 Y83.121 E10.00997
G1 X69.327 Y82.745 E10.02161
G1 X73.766 Y78.306 E10.21555
G1 X73.435 Y78.261 E10.22589
G1 X69.327 Y82.368 E10.40535
G1 X69.327 Y81.991 E10.41699
G1 X73.135 Y78.184 E10.58336
G1 X72.856 Y78.086 E10.59249
G1 X69.327 Y81.615 E10.74666
G1 X69.327 Y81.238 E10.75830
G1 X72.592 Y77.974 E10.90093
G1 X72.348 Y77.840 E10.90950
G1 X69.327 Y80.861 E11.04151
G1 X69.327 Y80.485 E11.05315
G1 X72.122 Y77.690 E11.17525
G1 X71.905 Y77.530 E11.18357
G1 X69.327 Y80.108 E11.29620
G1 X69.327 Y79.731 E11.30783
G1 X71.711 Y77.348 E11.41197
G1 X71.527 Y77.155 E11.42020
G1 X69.327 Y79.354 E11.51631
G1 X69.327 Y78.978 E11.52795
G1 X71.356 Y76.949 E11.61660
G1 X71.206 Y76.723 E11.62500
G1 X69.327 Y78.601 E11.70708
G1 X69.327 Y78.224 E11.71872
G1 X71.066 Y76.486 E11.79469
G1 X70.946 Y76.229 E11.80344
G1 X69.327 Y77.848 E11.87415
G1 X69.327 Y77.471 E11.88579
G1 X70.846 Y75.953 E11.95213
G1 X70.762 Y75.659 E11.96155
G1 X69.327 Y77.094 E12.02426
G1 X69.327 Y76.718 E12.03590
G1 X70.702 Y75.343 E12.09596
G1 X70.678 Y74.991 E12.10688
G1 X69.327 Y76.341 E12.16588
G1 X69.327 Y75.964 E12.17752
G1 X70.690 Y74.601 E12.23709
G1 X70.758 Y74.157 E12.25097
G1 X69.327 Y75.588 E12.31348
G1 X69.327 Y75.211 E12.32512
G1 X70.920 Y73.618 E12.39472
G1 X71.096 Y73.244 E12.40751
G1 X71.327 Y72.880 E12.42082
G1 X71.545 Y72.617 E12.43137
G1 X69.327 Y74.834 E12.52827
G1 X69.327 Y74.458 E12.53990
G1 X78.673 Y65.112 E12.94824
G1 X78.673 Y64.735 E12.95988
G1 X69.327 Y74.081 E13.36822
G1 X69.327 Y73.704 E13.37986
G1 X78.673 Y64.359 E13.78820
G1 X78.673 Y63.982 E13.79983
G1 X69.327 Y73.327 E14.20817
G1 X69.327 Y72.951 E14.21981
G1 X78.673 Y63.605 E14.62815
G1 X78.673 Y63.229 E14.63979
G1 X69.327 Y72.574 E15.04813
G1 X69.327 Y72.197 E15.05977
G1 X78.673 Y62.852 E15.46810
G1 X78.673 Y62.475 E15.47974
G1 X69.327 Y71.821 E15.88808
G1 X69.327 Y71.444 E15.89972
G1 X78.673 Y62.099 E16.30806
G1 X78.673 Y61.722 E16.31970
G1 X69.327 Y71.067 E16.72803
G1 X69.327 Y70.691 E16.73967
G1 X78.673 Y61.345 E17.14801
G1 X78.673 Y60.969 E17.15965
G1 X69.327 Y70.314 E17.56799
G1 X69.327 Y69.937 E17.57963
G1 X78.673 Y60.592 E17.98797
G1 X78.673 Y60.215 E17.99960
G1 X69.327 Y69.561 E18.40794
G1 X69.327 Y69.184 E18.41958
G1 X78.673 Y59.838 E18.82792
G1 X78.673 Y59.462 E18.83956
G1 X69.327 Y68.807 E19.24790
G1 X69.327 Y68.430 E19.25953
G1 X78.673 Y59.085 E19.66787
G1 X78.673 Y58.708 E19.67951
G1 X69.327 Y68.054 E20.08785
G1 X69.327 Y67.677 E20.09949
G1 X78.673 Y58.332 E20.50783
G1 X78.673 Y57.955 E20.51947
G1 X76.136 Y60.492 E20.63032
G1 X76.650 Y59.601 E20.66211
G1 X78.673 Y57.578 E20.75048
G1 X78.673 Y57.202 E20.76212
G1 X77.165 Y58.710 E20.82801
G1 X77.679 Y57.818 E20.85980
G1 X78.673 Y56.825 E20.90321
G1 X78.673 Y56.448 E20.91484
G1 X77.750 Y57.371 E20.95516
G1 X77.612 Y57.132 E20.96368
G1 X78.673 Y56.072 E21.01001
G1 X78.673 Y55.695 E21.02165
G1 X77.474 Y56.893 E21.07401
G1 X77.336 Y56.654 E21.08253
G1 X78.673 Y55.318 E21.14092
G1 X78.673 Y54.941 E21.15255
G1 X77.199 Y56.416 E21.21696
G1 X77.061 Y56.177 E21.22548
G1 E19.22548 F2400.00000
G92 E0
G1 X71.557 Y54.900 F7800.000
G1 E2.00000 F2400.00000
G1 F1800
G1 X71.043 Y55.791 E2.03180
G1 X69.327 Y57.506 E2.10675
G1 X69.327 Y57.883 E2.11839
G1 X70.528 Y56.682 E2.17085
G1 X70.156 Y57.327 E2.19384
G1 X70.194 Y57.393 E2.19620
G1 X69.327 Y58.260 E2.23408
G1 X69.327 Y58.637 E2.24572
G1 X70.332 Y57.632 E2.28963
G1 X70.470 Y57.870 E2.29815
G1 X69.327 Y59.013 E2.34808
G1 X69.327 Y59.390 E2.35972
G1 X70.608 Y58.109 E2.41567
G1 X70.746 Y58.348 E2.42419
G1 X69.327 Y59.767 E2.48617
G1 X69.327 Y60.143 E2.49781
G1 X70.884 Y58.587 E2.56582
G1 X71.022 Y58.826 E2.57434
G1 X69.327 Y60.520 E2.64836
G1 X69.327 Y60.897 E2.66000
G1 X71.159 Y59.065 E2.74006
G1 X71.297 Y59.303 E2.74858
G1 X69.327 Y61.273 E2.83465
G1 X69.327 Y61.650 E2.84629
G1 X71.435 Y59.542 E2.93840
G1 X71.573 Y59.781 E2.94692
G1 X69.327 Y62.027 E3.04504
G1 X69.327 Y62.403 E3.05668
G1 X71.711 Y60.020 E3.16083
G1 X71.849 Y60.259 E3.16935
G1 X69.327 Y62.780 E3.27953
G1 X69.327 Y63.157 E3.29117
G1 X71.987 Y60.497 E3.40737
G1 X72.125 Y60.736 E3.41589
G1 X69.327 Y63.534 E3.53811
G1 X69.327 Y63.910 E3.54975
G1 X72.492 Y60.745 E3.68805
G1 X72.869 Y60.745 E3.69968
G1 X69.327 Y64.287 E3.85444
G1 X69.327 Y64.664 E3.86608
G1 X73.246 Y60.745 E4.03729
G1 X73.622 Y60.745 E4.04893
G1 X69.327 Y65.040 E4.23661
G1 X69.327 Y65.417 E4.24824
G1 X73.999 Y60.745 E4.45238
G1 X74.376 Y60.745 E4.46402
G1 X69.327 Y65.794 E4.68461
G1 X69.327 Y66.170 E4.69625
G1 X74.753 Y60.745 E4.93330
G1 X75.129 Y60.745 E4.94494
G1 X69.327 Y66.547 E5.19845
G1 X69.327 Y66.924 E5.21009
G1 X75.506 Y60.745 E5.48006
G1 X75.883 Y60.745 E5.49169
G1 X69.327 Y67.300 E5.77812
G1 E3.77812 F2400.00000
G92 E0
G1 X71.338 Y72.823 F7800.000
G1 E2.00000 F2400.00000
G1 F1800
G1 X78.673 Y65.489 E2.32047
G1 X78.673 Y65.866 E2.33211
G1 X72.608 Y71.930 E2.59710
G1 X72.836 Y71.840 E2.60468
G1 X73.158 Y71.757 E2.61493
G1 X78.673 Y66.242 E2.85591
G1 X78.673 Y66.619 E2.86755
G1 X73.603 Y71.688 E3.08906
G1 X73.990 Y71.679 E3.10101
G1 X78.673 Y66.996 E3.30563
G1 X78.673 Y67.372 E3.31726
G1 X74.338 Y71.707 E3.50667
G1 X74.659 Y71.763 E3.51673
G1 X78.673 Y67.749 E3.69212
G1 X78.673 Y68.126 E3.70376
G1 X74.958 Y71.840 E3.86607
G1 X75.228 Y71.947 E3.87503
G1 X78.673 Y68.502 E4.02555
G1 X78.673 Y68.879 E4.03719
G1 X75.484 Y72.068 E4.17652
G1 X75.727 Y72.201 E4.18509
G1 X78.673 Y69.256 E4.31380
G1 X78.673 Y69.632 E4.32543
G1 X75.946 Y72.359 E4.44457
G1 X76.155 Y72.526 E4.45286
G1 X78.673 Y70.009 E4.56285
G1 X78.673 Y70.386 E4.57449
G1 X76.350 Y72.709 E4.67599
G1 X76.526 Y72.909 E4.68423
G1 X78.673 Y70.762 E4.77803
G1 X78.673 Y71.139 E4.78967
G1 X76.693 Y73.119 E4.87616
G1 X76.840 Y73.349 E4.88459
G1 X78.673 Y71.516 E4.96469
G1 X78.673 Y71.893 E4.97633
G1 X76.971 Y73.594 E5.05067
G1 X77.091 Y73.851 E5.05943
G1 X78.673 Y72.269 E5.12855
G1 X78.673 Y72.646 E5.14019
G1 X77.183 Y74.135 E5.20528
G1 X77.256 Y74.439 E5.21492
G1 X78.673 Y73.023 E5.27681
G1 X78.673 Y73.399 E5.28845
G1 X77.307 Y74.765 E5.34813
G1 X77.327 Y75.122 E5.35916
G1 X78.673 Y73.776 E5.41796
G1 X78.673 Y74.153 E5.42960
G1 X77.302 Y75.524 E5.48950
G1 X77.208 Y75.994 E5.50431
G1 X78.673 Y74.529 E5.56830
G1 X78.673 Y74.906 E5.57994
G1 X76.974 Y76.605 E5.65416
G1 E3.65416 F2400.00000
G92 E0
G1 X105.226 Y97.323 F7800.000
G1 E2.00000 F2400.00000
G1 F1800
G1 X106.971 Y95.577 E2.07626
G1 X106.594 Y95.577 E2.08790
G1 X104.849 Y97.323 E2.16417
G1 X104.472 Y97.323 E2.17580
G1 X106.218 Y95.577 E2.25207
G1 X105.841 Y95.577 E2.26371
G1 X104.096 Y97.323 E2.33997
G1 X103.719 Y97.323 E2.35161
G1 X105.464 Y95.577 E2.42787
G1 X105.088 Y95.577 E2.43951
G1 X103.342 Y97.323 E2.51577
G1 X102.966 Y97.323 E2.52741
G1 X104.711 Y95.577 E2.60368
G1 X104.334 Y95.577 E2.61532
G1 X102.589 Y97.323 E2.69158
G1 X102.212 Y97.323 E2.70322
G1 X103.958 Y95.577 E2.77948
G1 X103.581 Y95.577 E2.79112
G1 X101.836 Y97.323 E2.86738
G1 X101.459 Y97.323 E2.87902
G1 X103.204 Y95.577 E2.95529
G1 X102.828 Y95.577 E2.96692
G1 X101.082 Y97.323 E3.04319
G1 X100.705 Y97.323 E3.05483
G1 X102.451 Y95.577 E3.13109
G1 X102.074 Y95.577 E3.14273
G1 X100.329 Y97.323 E3.21899
G1 X99.952 Y97.323 E3.23063
G1 X101.697 Y95.577 E3.30690
G1 X101.321 Y95.577 E3.31853
G1 X99.575 Y97.323 E3.39480
G1 X99.199 Y97.323 E3.40644
G1 X100.944 Y95.577 E3.48270
G1 X100.567 Y95.577 E3.49434
G1 X98.822 Y97.323 E3.57060
G1 X98.445 Y97.323 E3.58224
G1 X100.191 Y95.577 E3.65850
G1 X99.814 Y95.577 E3.67014
G1 X98.069 Y97.323 E3.74641
G1 X97.692 Y97.323 E3.75804
G1 X99.437 Y95.577 E3.83431
G1 X99.061 Y95.577 E3.84595
G1 X97.315 Y97.323 E3.92221
G1 X96.939 Y97.323 E3.93385
G1 X98.684 Y95.577 E4.01011
G1 X98.307 Y95.577 E4.02175
G1 X96.562 Y97.323 E4.09802
G1 X96.185 Y97.323 E4.10965
G1 X97.931 Y95.577 E4.18592
G1 X97.554 Y95.577 E4.19756
G1 X95.808 Y97.323 E4.27382
G1 X95.432 Y97.323 E4.28546
G1 X97.177 Y95.577 E4.36172
G1 X96.801 Y95.577 E4.37336
G1 X95.055 Y97.323 E4.44962
G1 X94.678 Y97.323 E4.46126
G1 X96.424 Y95.577 E4.53753
G1 X96.047 Y95.577 E4.54916
G1 X94.302 Y97.323 E4.62543
G1 X93.925 Y97.323 E4.63707
G1 X95.670 Y95.577 E4.71333
G1 X95.294 Y95.577 E4.72497
G1 X93.548 Y97.323 E4.80123
G1 X93.172 Y97.323 E4.81287
G1 X94.917 Y95.577 E4.88914
G1 X94.540 Y95.577 E4.90077
G1 X92.795 Y97.323 E4.97704
G1 X92.418 Y97.323 E4.98868
G1 X94.164 Y95.577 E5.06494
G1 X93.787 Y95.577 E5.07658
G1 X92.042 Y97.323 E5.15284
G1 X91.665 Y97.323 E5.16448
G1 X93.410 Y95.577 E5.24074
G1 X93.034 Y95.577 E5.25238
G1 X91.288 Y97.323 E5.32865
G1 X90.912 Y97.323 E5.34029
G1 X92.657 Y95.577 E5.41655
G1 X92.280 Y95.577 E5.42819
G1 X90.535 Y97.323 E5.50445
G1 X90.158 Y97.323 E5.51609
G1 X91.904 Y95.577 E5.59235
G1 X91.527 Y95.577 E5.60399
G1 X89.781 Y97.323 E5.68026
G1 X89.405 Y97.323 E5.69189
G1 X91.150 Y95.577 E5.76816
G1 X90.773 Y95.577 E5.77980
G1 X89.028 Y97.323 E5.85606
G1 X88.651 Y97.323 E5.86770
G1 X90.397 Y95.577 E5.94396
G1 X90.020 Y95.577 E5.95560
G1 X88.275 Y97.323 E6.03187
G1 X87.898 Y97.323 E6.04350
G1 X89.643 Y95.577 E6.11977
